Shadow's Play/assets/LUT/F-8700-V2-STD.cube
# Copyright: (C) Copyright 2016 by IWLTBAP
# Cannot be resold, shared or otherwise redistributed
# Website: http://luts.iwltbap.com
TITLE "IWLTBAP 8700 V2 (Rec.709)"
LUT_3D_SIZE 8
DOMAIN_MIN 0.000000 0.000000 0.000000
DOMAIN_MAX 0.903226 0.903226 0.903226
0.000000 0.000000 0.000000
0.054565 0.011505 0.000580
0.190826 0.035797 0.000000
0.316895 0.047455 0.000000
0.429443 0.065613 0.000000
0.566772 0.088684 0.014221
0.709991 0.109467 0.034973
0.834564 0.143646 0.053192
0.000000 0.067688 0.012939
0.080292 0.075317 0.000000
0.237549 0.085114 0.000000
0.366272 0.100281 0.000000
0.492706 0.126862 0.000000
0.636780 0.162018 0.017181
0.781372 0.206482 0.024994
0.897400 0.255951 0.020508
0.000000 0.138306 0.010010
0.051788 0.179810 0.000000
0.284668 0.145294 0.000000
0.428864 0.149536 0.000000
0.555634 0.177795 0.011505
0.695282 0.215698 0.023407
0.826965 0.264496 0.025909
0.927063 0.321320 0.019226
0.000000 0.202637 0.008911
0.049500 0.246521 0.000000
0.294586 0.275940 0.004486
0.480499 0.213226 0.000000
0.615051 0.226257 0.017792
0.742920 0.265747 0.026764
0.859344 0.318634 0.025696
0.947754 0.381836 0.020538
0.000000 0.269135 0.013672
0.068848 0.312500 0.006897
0.302734 0.366211 0.006561
0.486664 0.381165 0.031189
0.662476 0.304535 0.011597
0.788208 0.324493 0.024628
0.887787 0.382294 0.025177
0.962891 0.453491 0.029022
0.000000 0.350037 0.027496
0.105835 0.403717 0.021301
0.323639 0.464081 0.016693
0.517578 0.516327 0.043549
0.657349 0.534668 0.057281
0.813232 0.452637 0.026276
0.910767 0.473175 0.029480
0.979004 0.539825 0.046082
0.020691 0.450562 0.044861
0.172638 0.516205 0.037842
0.370728 0.580170 0.033905
0.541992 0.637512 0.037720
0.686890 0.679474 0.067932
0.795624 0.702698 0.080627
0.911713 0.631317 0.062775
0.990753 0.649200 0.066833
0.045227 0.564209 0.063721
0.262299 0.638245 0.055847
0.439209 0.695526 0.052948
0.583862 0.744171 0.052216
0.715881 0.787567 0.067932
0.827271 0.827271 0.090881
0.908325 0.847290 0.103577
0.994354 0.784576 0.094849
0.000000 0.003357 0.062927
0.016052 0.026764 0.064453
0.151733 0.043091 0.066376
0.257446 0.067200 0.077393
0.381073 0.089142 0.083862
0.556641 0.110107 0.079651
0.716949 0.142120 0.076691
0.853790 0.185242 0.077698
0.000000 0.055939 0.083191
0.025085 0.088104 0.104706
0.193878 0.124878 0.108246
0.340210 0.141541 0.098633
0.499084 0.153503 0.081787
0.663300 0.170319 0.060120
0.806122 0.212891 0.058746
0.915375 0.263245 0.050507
0.000000 0.186035 0.152008
0.021545 0.192169 0.120483
0.240784 0.187866 0.075256
0.385498 0.202637 0.096924
0.539551 0.223206 0.073547
0.696625 0.258942 0.053345
0.831665 0.322998 0.053314
0.927643 0.396118 0.062195
0.000000 0.270538 0.166016
0.027985 0.261566 0.115021
0.196503 0.304199 0.080444
0.441956 0.268921 0.048889
0.594940 0.271759 0.053253
0.732483 0.323181 0.058136
0.854126 0.394714 0.063629
0.942841 0.469055 0.075562
0.000000 0.340668 0.160645
0.038177 0.333527 0.117188
0.184448 0.394257 0.086426
0.433929 0.427429 0.061249
0.636200 0.374237 0.059570
0.775513 0.393494 0.064911
0.875427 0.473511 0.082428
0.958801 0.542206 0.094910
0.000000 0.415863 0.152435
0.053192 0.419739 0.125427
0.207031 0.501343 0.094238
0.430389 0.535339 0.068726
0.623962 0.584015 0.086761
0.795959 0.533112 0.085602
0.902374 0.558655 0.095581
0.974823 0.623566 0.116730
0.016693 0.505432 0.166290
0.076385 0.527527 0.143585
0.262360 0.620575 0.118469
0.462708 0.649475 0.109833
0.647125 0.705353 0.090179
0.787231 0.745697 0.109833
0.911560 0.697083 0.115143
0.989929 0.711151 0.127106
0.048218 0.601227 0.216644
0.122711 0.673279 0.173218
0.361084 0.731720 0.170929
0.528931 0.755188 0.184540
0.677521 0.800385 0.164215
0.817261 0.847870 0.118256
0.906555 0.876373 0.133759
0.995911 0.826660 0.135712
0.000000 0.034943 0.136810
0.000000 0.050171 0.133667
0.081421 0.069550 0.131561
0.228119 0.076447 0.117645
0.339233 0.101532 0.126892
0.491791 0.137085 0.142883
0.681122 0.178741 0.155334
0.847412 0.233704 0.159241
0.000000 0.076630 0.159332
0.000641 0.105530 0.189697
0.091187 0.133453 0.180939
0.271759 0.165863 0.178131
0.409851 0.200073 0.189270
0.601440 0.233063 0.185486
0.782623 0.279022 0.182159
0.908417 0.327789 0.180450
0.000000 0.134674 0.179810
0.012329 0.171326 0.215820
0.096039 0.206543 0.233856
0.317566 0.255096 0.234009
0.493561 0.280243 0.219574
0.684937 0.312866 0.200958
0.835083 0.366180 0.201447
0.939789 0.417938 0.202667
0.000000 0.260223 0.267822
0.022552 0.305542 0.298004
0.086273 0.327423 0.267975
0.370361 0.329987 0.179749
0.536255 0.347290 0.219757
0.703979 0.402252 0.215881
0.842316 0.471344 0.224274
0.940247 0.534393 0.236206
0.012238 0.397369 0.351166
0.040192 0.419189 0.342010
0.092010 0.407257 0.256012
0.313995 0.452301 0.201630
0.593781 0.440582 0.134430
0.745697 0.476959 0.202179
0.865784 0.547821 0.218445
0.954102 0.610107 0.217590
0.031342 0.512268 0.399933
0.055847 0.509766 0.338928
0.108276 0.500824 0.259613
0.314575 0.564819 0.228851
0.579285 0.613953 0.179108
0.777771 0.596436 0.137054
0.893707 0.626038 0.180389
0.966339 0.685455 0.207855
0.046204 0.599915 0.410950
0.076599 0.590027 0.333130
0.148346 0.616852 0.275299
0.372498 0.679962 0.267609
0.592743 0.717010 0.270081
0.779266 0.775024 0.180420
0.909393 0.741455 0.155396
0.983429 0.756256 0.178314
0.061798 0.672607 0.428070
0.109070 0.668976 0.360687
0.255005 0.739349 0.312622
0.473633 0.781158 0.318359
0.645508 0.810150 0.333282
0.799194 0.861481 0.275604
0.903564 0.894653 0.197510
0.996033 0.855896 0.167694
0.000000 0.067505 0.203094
0.000000 0.077576 0.196289
0.022003 0.093140 0.196503
0.129639 0.110229 0.188995
0.298553 0.118347 0.165436
0.462585 0.147552 0.173584
0.644928 0.196564 0.194641
0.805206 0.266388 0.227966
0.000000 0.108337 0.229950
0.000000 0.135742 0.264404
0.039978 0.150177 0.256378
0.154175 0.183594 0.247742
0.366180 0.210602 0.231049
0.544373 0.253510 0.242859
0.723114 0.318665 0.274017
0.870605 0.383453 0.298096
0.000000 0.150421 0.254517
0.009308 0.181244 0.289856
0.059204 0.212524 0.323212
0.185516 0.251617 0.313538
0.425293 0.311707 0.309235
0.613647 0.362061 0.319702
0.789795 0.421906 0.338654
0.912994 0.472076 0.351501
0.000000 0.201752 0.274323
0.019257 0.236389 0.311249
0.071991 0.283722 0.354950
0.188232 0.337219 0.378632
0.475952 0.406128 0.372284
0.672974 0.452545 0.372009
0.830170 0.507599 0.386078
0.935516 0.557434 0.400299
0.010834 0.319519 0.362152
0.041901 0.380890 0.415283
0.087616 0.449799 0.462555
0.173737 0.481171 0.428131
0.528137 0.504059 0.321686
0.701996 0.541534 0.394104
0.843262 0.604034 0.408691
0.940002 0.660156 0.424591
0.043091 0.514801 0.515106
0.067780 0.557739 0.539581
0.111938 0.595123 0.533295
0.202911 0.581055 0.422729
0.499542 0.634521 0.366882
0.757782 0.644806 0.297729
0.875793 0.679901 0.391479
0.958282 0.730225 0.408264
0.069336 0.665161 0.625854
0.090210 0.678802 0.609711
0.133667 0.669067 0.515350
0.282684 0.684235 0.430634
0.542664 0.739136 0.414551
0.761902 0.792938 0.368896
0.904541 0.778290 0.233795
0.978821 0.794739 0.332733
0.089264 0.755402 0.671906
0.112213 0.749603 0.606201
0.167694 0.733551 0.511414
0.410736 0.789948 0.450012
0.621368 0.831665 0.452606
0.780670 0.869965 0.438751
0.898132 0.905945 0.372223
0.996552 0.879974 0.199890
0.000000 0.101929 0.274170
0.000000 0.110596 0.265259
0.017975 0.121246 0.258179
0.055908 0.137451 0.260529
0.183777 0.150879 0.244049
0.422241 0.167450 0.210419
0.618774 0.205811 0.223114
0.782471 0.277679 0.259430
0.000000 0.143616 0.304443
0.006622 0.170990 0.345581
0.037628 0.183838 0.339569
0.074615 0.195007 0.325989
0.242859 0.235626 0.312378
0.503357 0.269653 0.286713
0.691345 0.327454 0.309631
0.835480 0.406128 0.362152
0.000000 0.177063 0.330841
0.017120 0.210083 0.373291
0.054932 0.244019 0.416870
0.097107 0.258789 0.406250
0.303223 0.323547 0.388916
0.567902 0.375549 0.370758
0.740021 0.444305 0.411011
0.876068 0.509247 0.454651
0.000000 0.216431 0.357086
0.025848 0.250122 0.398041
0.066986 0.293152 0.446594
0.118958 0.327667 0.478333
0.350647 0.407318 0.465759
0.618591 0.481903 0.462402
0.785217 0.545868 0.500458
0.910248 0.596161 0.524811
0.007874 0.273010 0.383270
0.036957 0.312469 0.425751
0.080048 0.364471 0.478943
0.135620 0.416809 0.519104
0.376068 0.516205 0.549255
0.668854 0.592926 0.546661
0.827515 0.640137 0.562378
0.934357 0.682373 0.575928
0.036163 0.410217 0.485382
0.067200 0.474670 0.545074
0.096375 0.528839 0.591644
0.160645 0.608398 0.643768
0.385590 0.656860 0.593231
0.724396 0.690674 0.503906
0.854126 0.725647 0.568573
0.947083 0.769531 0.576874
0.073853 0.621643 0.660889
0.098877 0.664429 0.691833
0.131409 0.705414 0.720367
0.193024 0.739990 0.710297
0.484619 0.751129 0.582947
0.736176 0.802673 0.544189
0.892090 0.809052 0.458038
0.970886 0.827789 0.534180
0.101318 0.760803 0.771576
0.123016 0.786377 0.786011
0.166534 0.816620 0.780273
0.236389 0.807343 0.689331
0.591705 0.845459 0.576904
0.769440 0.878845 0.579346
0.892883 0.916351 0.522644
0.992065 0.900360 0.353882
0.000000 0.144287 0.367584
0.001892 0.153107 0.355011
0.019440 0.158295 0.345001
0.045837 0.168976 0.337830
0.094666 0.189789 0.340454
0.308594 0.201111 0.294495
0.581238 0.233826 0.270477
0.758728 0.289581 0.294220
0.000000 0.187195 0.401520
0.019012 0.216125 0.448792
0.037048 0.223328 0.438629
0.068787 0.237610 0.431580
0.126343 0.257568 0.418182
0.412140 0.302185 0.365997
0.650940 0.348083 0.359924
0.814178 0.412842 0.395782
0.000305 0.221313 0.430756
0.029297 0.256134 0.478943
0.053070 0.283722 0.518951
0.091614 0.303680 0.520294
0.161255 0.326996 0.500092
0.484833 0.405121 0.455566
0.707031 0.453461 0.452362
0.850677 0.521332 0.506104
0.009155 0.251404 0.455414
0.037781 0.290314 0.504669
0.063599 0.323547 0.546143
0.113220 0.367279 0.593658
0.198822 0.399323 0.579742
0.545654 0.501251 0.542542
0.751465 0.553741 0.550018
0.880096 0.617065 0.604584
0.018768 0.293457 0.485382
0.047089 0.333038 0.532990
0.076569 0.374542 0.577484
0.129181 0.429871 0.626556
0.242798 0.488983 0.655365
0.605530 0.602905 0.628906
0.797760 0.655792 0.639160
0.912354 0.703644 0.674042
0.033264 0.367035 0.521881
0.061768 0.412170 0.568970
0.093323 0.458160 0.614258
0.150360 0.517426 0.665070
0.260284 0.582794 0.695129
0.668793 0.718292 0.700989
0.839630 0.759094 0.704926
0.938751 0.789246 0.717682
0.064789 0.515961 0.628174
0.093597 0.566437 0.676056
0.117462 0.607605 0.713806
0.171722 0.670380 0.763062
0.269318 0.743408 0.794800
0.706207 0.817017 0.707825
0.877594 0.834564 0.661224
0.958038 0.856537 0.703705
0.101013 0.692535 0.775543
0.125519 0.729156 0.804962
0.147858 0.759521 0.826538
0.207916 0.811920 0.858246
0.345917 0.858673 0.829071
0.758270 0.893860 0.703644
0.882385 0.922333 0.685455
0.982391 0.917450 0.595367
0.000000 0.198364 0.483612
0.017029 0.205688 0.470825
0.032532 0.210632 0.457825
0.046143 0.214294 0.444336
0.075195 0.226196 0.434448
0.191742 0.267853 0.434113
0.508453 0.279022 0.332855
0.732361 0.321045 0.345886
0.007019 0.240997 0.518860
0.033630 0.272003 0.567322
0.049133 0.278625 0.558929
0.066956 0.285095 0.544464
0.104614 0.300568 0.532013
0.260620 0.357269 0.523071
0.611542 0.389099 0.429596
0.783295 0.441620 0.462189
0.016479 0.276001 0.546906
0.043549 0.311920 0.594360
0.063446 0.337280 0.631134
0.088715 0.351746 0.632996
0.133423 0.368744 0.617188
0.332428 0.440094 0.605103
0.664581 0.495422 0.546814
0.825317 0.541412 0.572357
0.024628 0.307281 0.571777
0.051880 0.344940 0.618713
0.073181 0.375519 0.655670
0.109436 0.412445 0.698120
0.163788 0.435333 0.691925
0.407227 0.520966 0.678680
0.715698 0.579926 0.637054
0.860962 0.626953 0.658813
0.033295 0.340454 0.598175
0.060791 0.380127 0.643616
0.082977 0.414703 0.680237
0.124390 0.461731 0.726898
0.202026 0.508881 0.755188
0.501617 0.612030 0.746338
0.768341 0.668945 0.714813
0.892609 0.711304 0.732208
0.044861 0.393738 0.630188
0.072388 0.436951 0.674713
0.095703 0.473724 0.711304
0.145416 0.527527 0.757599
0.229675 0.582184 0.782593
0.593994 0.704956 0.800507
0.819122 0.761963 0.774048
0.922852 0.794647 0.788635
0.061707 0.479309 0.671143
0.089172 0.521942 0.712402
0.114166 0.558197 0.747009
0.170258 0.612213 0.789673
0.257996 0.663605 0.810120
0.629028 0.787170 0.832428
0.854767 0.856293 0.816284
0.945557 0.876678 0.824432
0.092377 0.611145 0.759827
0.118683 0.648895 0.792145
0.139465 0.677521 0.817139
0.180756 0.720367 0.849182
0.256805 0.779633 0.879272
0.576263 0.900940 0.904755
0.871490 0.926910 0.819183
0.969238 0.931549 0.782471
0.012939 0.260651 0.608337
0.032837 0.266785 0.595917
0.047699 0.271759 0.583008
0.060150 0.274078 0.569153
0.076508 0.278168 0.552765
0.128357 0.304352 0.549896
0.386963 0.355865 0.519348
0.703552 0.376526 0.433228
0.024200 0.303467 0.638062
0.048370 0.331787 0.678558
0.064148 0.340057 0.676453
0.076721 0.342407 0.662018
0.105225 0.356262 0.655090
0.172150 0.384460 0.645782
0.480316 0.459412 0.628998
0.751801 0.495605 0.579620
0.032654 0.337189 0.662109
0.057800 0.368561 0.702759
0.077118 0.393005 0.735474
0.092285 0.401611 0.736877
0.133240 0.423004 0.733917
0.228394 0.458160 0.721405
0.559418 0.538452 0.708679
0.797394 0.571960 0.665558
0.040527 0.366760 0.683044
0.066071 0.400604 0.723572
0.086456 0.428192 0.756073
0.107971 0.452393 0.784363
0.160980 0.481781 0.792969
0.304169 0.532349 0.781525
0.633606 0.613708 0.773254
0.837524 0.638123 0.732544
0.048920 0.398071 0.707214
0.075073 0.434448 0.745575
0.095886 0.464478 0.776611
0.121155 0.495300 0.807556
0.189941 0.541107 0.837372
0.407990 0.617523 0.833557
0.708252 0.699249 0.828339
0.873383 0.716766 0.798798
0.059204 0.438416 0.732697
0.085419 0.479065 0.769653
0.106598 0.511017 0.800415
0.138336 0.550751 0.831848
0.211121 0.602478 0.858063
0.517639 0.706879 0.875122
0.777985 0.787933 0.868896
0.906921 0.803284 0.853607
0.072662 0.502838 0.764801
0.098389 0.540802 0.798218
0.119659 0.572601 0.824921
0.162537 0.615875 0.857727
0.237976 0.661835 0.875519
0.560944 0.769806 0.894348
0.827789 0.859711 0.895508
0.934723 0.871796 0.877747
0.090057 0.584198 0.798187
0.114960 0.618439 0.828888
0.136993 0.647186 0.852386
0.187958 0.690186 0.882416
0.263000 0.730682 0.894897
0.584259 0.833374 0.913727
0.837402 0.920105 0.922028
0.949341 0.946259 0.899506
