Shadow's Play/assets/LUT/F-8700-V2-STD.cube
# Copyright: (C) Copyright 2016 by IWLTBAP
# Cannot be resold, shared or otherwise redistributed
# Website: http://luts.iwltbap.com
TITLE "IWLTBAP 8700 V2 (Rec.709)"
LUT_3D_SIZE 32
0.000000 0.000000 0.000000
0.000000 0.000000 0.000000
0.000000 0.000000 0.000000
0.024261 0.003754 0.000000
0.054565 0.011505 0.000580
0.089447 0.019623 0.001984
0.123840 0.027069 0.002533
0.157593 0.031708 0.000336
0.190826 0.035797 0.000000
0.223175 0.039124 0.000000
0.255188 0.042084 0.000000
0.286804 0.044647 0.000000
0.316895 0.047455 0.000000
0.344666 0.050751 0.000000
0.372284 0.054901 0.000000
0.399689 0.060089 0.000000
0.429443 0.065613 0.000000
0.461365 0.071442 0.000000
0.495331 0.077240 0.003448
0.530640 0.083252 0.008850
0.566772 0.088684 0.014221
0.603577 0.093628 0.019226
0.639526 0.098694 0.024506
0.675140 0.103699 0.029510
0.709991 0.109467 0.034973
0.744598 0.115631 0.040436
0.776062 0.123657 0.045197
0.806824 0.131958 0.050110
0.834564 0.143646 0.053192
0.861816 0.155579 0.055969
0.887726 0.168823 0.056305
0.913330 0.182068 0.056610
0.000000 0.000000 0.000000
0.000000 0.002777 0.000000
0.000000 0.013885 0.000488
0.030334 0.019287 0.003021
0.060333 0.026367 0.004700
0.095551 0.032654 0.004944
0.130310 0.040131 0.005280
0.166443 0.045197 0.002289
0.199921 0.049316 0.000000
0.233124 0.052368 0.000000
0.265289 0.055695 0.000000
0.297363 0.058624 0.000000
0.327850 0.061554 0.000000
0.356262 0.065063 0.000000
0.385315 0.069702 0.000000
0.414307 0.075226 0.000000
0.444977 0.081329 0.000000
0.477631 0.087952 0.000000
0.512329 0.095001 0.004242
0.548035 0.101776 0.009766
0.585632 0.109772 0.014618
0.623047 0.116364 0.019531
0.659302 0.124603 0.023254
0.695129 0.130890 0.027740
0.729187 0.140228 0.030518
0.763611 0.147430 0.035126
0.795380 0.157593 0.036346
0.826080 0.166290 0.040497
0.853668 0.177521 0.039429
0.880890 0.189362 0.041931
0.903961 0.200958 0.039429
0.929626 0.213989 0.039581
0.000000 0.022614 0.007629
0.000000 0.026764 0.005920
0.000000 0.030518 0.003632
0.032410 0.035706 0.005829
0.066711 0.040771 0.008026
0.101654 0.046875 0.008179
0.136597 0.052612 0.007935
0.173553 0.057861 0.004883
0.209076 0.062622 0.001465
0.242432 0.065643 0.000000
0.275360 0.068665 0.000000
0.307739 0.071716 0.000000
0.338654 0.075348 0.000000
0.367462 0.079102 0.000000
0.397125 0.083862 0.000000
0.427551 0.089783 0.000000
0.459656 0.096313 0.000000
0.493164 0.103760 0.000000
0.528503 0.111481 0.005157
0.565063 0.119476 0.010529
0.602905 0.128143 0.015472
0.641571 0.137390 0.020172
0.678528 0.146820 0.023468
0.714569 0.156372 0.026428
0.748932 0.166656 0.028687
0.782562 0.177216 0.030640
0.813843 0.188293 0.031036
0.844879 0.199219 0.031586
0.872375 0.210632 0.030121
0.899536 0.222015 0.028351
0.922394 0.233643 0.025848
0.945435 0.245056 0.023071
0.000000 0.045990 0.010529
0.000000 0.052094 0.011169
0.000000 0.055817 0.009155
0.039215 0.053436 0.000549
0.073730 0.057922 0.003113
0.116211 0.059570 0.005157
0.150909 0.065002 0.004944
0.187805 0.069275 0.002350
0.223267 0.073975 0.000000
0.256836 0.077026 0.000000
0.289520 0.080231 0.000000
0.321320 0.083984 0.000000
0.352356 0.088043 0.000000
0.381470 0.093048 0.000000
0.412048 0.098419 0.000000
0.443848 0.105103 0.000000
0.476257 0.111969 0.000000
0.510406 0.119659 0.001892
0.545837 0.127808 0.006836
0.582550 0.136078 0.011780
0.619629 0.145508 0.015839
0.657837 0.155212 0.019989
0.695068 0.165955 0.022552
0.731201 0.175873 0.025085
0.765594 0.187469 0.026276
0.799225 0.198456 0.027832
0.828735 0.210358 0.026703
0.859131 0.221588 0.026642
0.884186 0.234314 0.024780
0.910706 0.245850 0.023071
0.931396 0.259033 0.021088
0.954041 0.270599 0.018555
0.000000 0.067688 0.012939
0.000000 0.074341 0.013885
0.000000 0.080383 0.013885
0.036438 0.078552 0.005554
0.080292 0.075317 0.000000
0.123260 0.076569 0.000000
0.165436 0.077301 0.001099
0.202179 0.081329 0.000000
0.237549 0.085114 0.000000
0.271210 0.088135 0.000000
0.303802 0.091827 0.000000
0.335480 0.095764 0.000000
0.366272 0.100281 0.000000
0.395599 0.105713 0.000000
0.426361 0.112061 0.000000
0.458893 0.119354 0.000000
0.492706 0.126862 0.000000
0.527191 0.134735 0.004059
0.562927 0.143341 0.008759
0.599731 0.152008 0.013519
0.636780 0.162018 0.017181
0.674103 0.172272 0.020355
0.710785 0.183197 0.022369
0.747345 0.194611 0.024414
0.781372 0.206482 0.024994
0.815063 0.218384 0.025574
0.844360 0.230804 0.024414
0.872864 0.242920 0.022614
0.897400 0.255951 0.020508
0.921631 0.268799 0.018158
0.941864 0.282074 0.016327
0.962250 0.295410 0.014465
0.000000 0.085358 0.011932
0.000000 0.095367 0.014435
0.000000 0.101715 0.014618
0.031281 0.107086 0.005829
0.075104 0.104279 0.000000
0.132050 0.093445 0.000000
0.174652 0.093994 0.000000
0.218262 0.091980 0.000000
0.253723 0.095795 0.000000
0.286896 0.098907 0.000000
0.319122 0.102814 0.000000
0.349243 0.108124 0.000000
0.380737 0.113068 0.000000
0.411926 0.119080 0.000000
0.442627 0.125336 0.000000
0.475098 0.132568 0.000000
0.508942 0.140198 0.002411
0.543579 0.148163 0.007111
0.579498 0.157074 0.011353
0.616119 0.166290 0.015533
0.653137 0.176636 0.018677
0.690338 0.187225 0.021545
0.725555 0.198578 0.023102
0.761261 0.210052 0.024567
0.793427 0.222137 0.024567
0.826294 0.234436 0.024689
0.854156 0.247498 0.023468
0.882294 0.259979 0.021881
0.905243 0.273926 0.020233
0.929169 0.286926 0.017944
0.947357 0.301697 0.015991
0.967316 0.314941 0.014191
0.000000 0.102905 0.011169
0.000000 0.112915 0.013977
0.000000 0.122681 0.015625
0.029541 0.128937 0.006622
0.070099 0.133179 0.000000
0.127960 0.122925 0.000000
0.182922 0.111328 0.000000
0.226990 0.109070 0.000000
0.269257 0.106873 0.000000
0.302277 0.110107 0.000000
0.334900 0.113770 0.000000
0.364624 0.119537 0.000000
0.394836 0.125275 0.000000
0.426758 0.131714 0.000000
0.458832 0.138458 0.000000
0.491455 0.145477 0.001770
0.524872 0.153229 0.005829
0.559448 0.161255 0.010162
0.595306 0.170258 0.014160
0.631958 0.179749 0.017609
0.668915 0.190582 0.020355
0.705902 0.201569 0.022736
0.740723 0.213196 0.024048
0.775238 0.224884 0.024994
0.806580 0.237305 0.024719
0.837402 0.249817 0.024200
0.864563 0.263062 0.022736
0.891510 0.276489 0.021240
0.914001 0.290680 0.019440
0.936371 0.304657 0.017792
0.954407 0.319550 0.015991
0.972626 0.334290 0.014038
0.000000 0.120850 0.010437
0.000000 0.130890 0.014374
0.000000 0.140869 0.016235
0.020447 0.151733 0.006439
0.060059 0.156830 0.000000
0.127838 0.154449 0.000000
0.183289 0.143616 0.000000
0.234070 0.128479 0.000000
0.276764 0.126068 0.000000
0.315979 0.123657 0.000000
0.349060 0.127075 0.000000
0.381897 0.131714 0.000000
0.411926 0.137451 0.000000
0.442902 0.143799 0.000000
0.474854 0.150543 0.000854
0.506989 0.157898 0.004944
0.540344 0.165436 0.008636
0.574280 0.173767 0.012817
0.609558 0.182800 0.016235
0.645660 0.192261 0.019409
0.682220 0.203094 0.021820
0.719055 0.214661 0.023621
0.752808 0.226593 0.024872
0.786285 0.238403 0.025848
0.816895 0.251129 0.025177
0.846985 0.263763 0.024597
0.872711 0.277710 0.022736
0.898773 0.291229 0.020905
0.920288 0.306519 0.019287
0.942291 0.320862 0.017609
0.959778 0.336395 0.016632
0.977600 0.351196 0.014648
0.000000 0.138306 0.010010
0.000000 0.147736 0.014069
0.000000 0.158112 0.016846
0.020538 0.170044 0.006287
0.051788 0.179810 0.000000
0.120087 0.178223 0.000000
0.184326 0.175110 0.000000
0.235382 0.160767 0.000000
0.284668 0.145294 0.000000
0.324402 0.142517 0.000000
0.362915 0.140533 0.000000
0.396027 0.144989 0.000000
0.428864 0.149536 0.000000
0.459656 0.155884 0.000000
0.490784 0.162537 0.003845
0.522797 0.169922 0.007843
0.555634 0.177795 0.011505
0.589386 0.185913 0.015472
0.623810 0.195068 0.018616
0.659393 0.204803 0.021606
0.695282 0.215698 0.023407
0.731842 0.227325 0.024872
0.764984 0.239594 0.025696
0.797607 0.251556 0.026367
0.826965 0.264496 0.025909
0.856384 0.277618 0.024872
0.881409 0.291779 0.023071
0.906036 0.305908 0.020874
0.927063 0.321320 0.019226
0.948059 0.336823 0.017548
0.965057 0.352509 0.016632
0.982361 0.368164 0.015533
0.000000 0.154358 0.010010
0.000000 0.162292 0.014191
0.000000 0.172150 0.016998
0.017914 0.188324 0.003723
0.048462 0.199158 0.000000
0.117981 0.202454 0.000000
0.182220 0.199951 0.000000
0.238586 0.192657 0.000000
0.288239 0.178009 0.000000
0.334900 0.161316 0.000000
0.373535 0.159271 0.000000
0.410492 0.158478 0.000000
0.443207 0.162903 0.000000
0.475616 0.167908 0.001190
0.506622 0.174652 0.005646
0.538300 0.181732 0.010223
0.570984 0.189667 0.014069
0.604156 0.198303 0.017609
0.638062 0.207611 0.020508
0.672729 0.217651 0.023071
0.707947 0.228485 0.024689
0.743408 0.240112 0.025879
0.775726 0.252563 0.026245
0.807312 0.265015 0.026489
0.835846 0.278168 0.026062
0.864258 0.291534 0.025055
0.888489 0.306030 0.023132
0.912689 0.320618 0.020874
0.932709 0.336273 0.019287
0.953064 0.351929 0.017731
0.969330 0.368561 0.017120
0.986115 0.384460 0.015991
0.000000 0.170380 0.009857
0.000000 0.178192 0.014191
0.000000 0.186676 0.017181
0.019012 0.202454 0.004333
0.046356 0.217377 0.000000
0.115417 0.221619 0.000000
0.180969 0.225494 0.000000
0.237640 0.220032 0.000000
0.292175 0.210693 0.000000
0.339172 0.194458 0.000000
0.384460 0.177887 0.000000
0.421539 0.176819 0.000000
0.457428 0.176636 0.000000
0.489716 0.181488 0.002014
0.522308 0.186768 0.007111
0.553864 0.193695 0.011871
0.585724 0.201447 0.016052
0.618896 0.210144 0.019470
0.652069 0.219635 0.022217
0.686279 0.229858 0.024597
0.720245 0.241211 0.025909
0.755066 0.252777 0.026672
0.786255 0.265320 0.026764
0.816925 0.278015 0.026764
0.844452 0.291718 0.026062
0.871765 0.305206 0.025055
0.895538 0.320099 0.023254
0.918945 0.334961 0.020874
0.938354 0.351166 0.019440
0.957794 0.367157 0.017944
0.973907 0.383667 0.017578
0.989838 0.400482 0.016998
0.000000 0.186615 0.009369
0.000000 0.194214 0.014038
0.000000 0.202454 0.017181
0.020233 0.217133 0.005371
0.047485 0.231903 0.000000
0.114441 0.239532 0.000000
0.179535 0.244080 0.000000
0.238770 0.250824 0.000000
0.293701 0.243378 0.000000
0.344757 0.228027 0.000000
0.390137 0.211639 0.000000
0.432861 0.195129 0.000000
0.468842 0.194702 0.000000
0.503357 0.195068 0.002625
0.536011 0.200195 0.007965
0.568909 0.206024 0.013062
0.600525 0.213745 0.017212
0.632629 0.221954 0.020691
0.665375 0.231476 0.023315
0.698425 0.241974 0.025177
0.731567 0.253479 0.026489
0.765045 0.265350 0.027374
0.795593 0.278046 0.027313
0.825043 0.290894 0.026764
0.851746 0.304901 0.025940
0.878265 0.319061 0.024719
0.901459 0.334381 0.023102
0.924530 0.349579 0.020874
0.943024 0.366272 0.019897
0.961945 0.382629 0.018707
0.977600 0.399231 0.018799
0.993439 0.415710 0.018402
0.000000 0.202637 0.008911
0.000000 0.210510 0.013733
0.000000 0.218384 0.017334
0.023071 0.232361 0.006378
0.049500 0.246521 0.000000
0.115784 0.254944 0.000000
0.179474 0.263306 0.000000
0.238800 0.270874 0.000000
0.294586 0.275940 0.004486
0.345245 0.262848 0.003845
0.395996 0.245941 0.000458
0.439117 0.229370 0.000000
0.480499 0.213226 0.000000
0.515045 0.213470 0.002228
0.549347 0.214355 0.008148
0.582489 0.219849 0.013275
0.615051 0.226257 0.017792
0.646912 0.234589 0.021515
0.678528 0.243866 0.023804
0.711060 0.254150 0.025879
0.742920 0.265747 0.026764
0.775604 0.277954 0.027588
0.805054 0.291290 0.027466
0.833649 0.304382 0.026764
0.859344 0.318634 0.025696
0.884857 0.333191 0.024445
0.907074 0.349121 0.023132
0.929535 0.364655 0.021240
0.947754 0.381836 0.020538
0.965729 0.398590 0.019470
0.981445 0.415375 0.020355
0.997162 0.431702 0.020508
0.000000 0.218964 0.009216
0.000000 0.227142 0.013977
0.001862 0.235260 0.017456
0.027283 0.247559 0.007965
0.054626 0.260864 0.000000
0.118378 0.271393 0.000000
0.181366 0.280487 0.000000
0.241150 0.292664 0.000000
0.297028 0.298615 0.005585
0.344727 0.299377 0.012329
0.395020 0.284485 0.010132
0.445709 0.264038 0.003723
0.487488 0.247833 0.001892
0.526978 0.232513 0.001343
0.561310 0.233276 0.007080
0.595490 0.234802 0.012970
0.628174 0.240997 0.017517
0.660492 0.247833 0.021515
0.691925 0.257263 0.023804
0.723572 0.267487 0.025635
0.754486 0.279022 0.026520
0.785431 0.291168 0.027313
0.814362 0.304840 0.027069
0.842010 0.318695 0.026428
0.866882 0.333374 0.025146
0.891418 0.348206 0.023712
0.912598 0.364594 0.023132
0.933838 0.380829 0.021973
0.951569 0.398285 0.021820
0.969177 0.415588 0.021301
0.984985 0.432281 0.022949
1.000000 0.448853 0.023621
0.000000 0.235138 0.009979
0.000000 0.243988 0.014130
0.004486 0.252502 0.017792
0.030334 0.264435 0.009491
0.059113 0.276764 0.000061
0.122681 0.287903 0.000000
0.183350 0.298798 0.000000
0.242310 0.311310 0.000061
0.299774 0.322693 0.007111
0.348511 0.324829 0.014465
0.393799 0.324554 0.019348
0.443207 0.306641 0.014435
0.494324 0.284943 0.007324
0.534485 0.269287 0.006378
0.572845 0.253815 0.005341
0.607239 0.255096 0.011383
0.640686 0.256775 0.016479
0.673035 0.263702 0.020447
0.704834 0.271271 0.023560
0.736053 0.281433 0.025208
0.765869 0.292877 0.026245
0.795990 0.304962 0.026703
0.823151 0.319275 0.026520
0.850403 0.333435 0.026062
0.874023 0.348816 0.025177
0.897705 0.363770 0.023682
0.917755 0.380890 0.023468
0.937988 0.397736 0.022980
0.955261 0.415619 0.023651
0.972565 0.433167 0.023651
0.988831 0.450165 0.025787
1.000000 0.466919 0.027435
0.000000 0.251617 0.011536
0.000000 0.261230 0.014740
0.006866 0.270203 0.017944
0.033752 0.281830 0.011383
0.063324 0.293884 0.003540
0.126709 0.306458 0.001526
0.187286 0.318146 0.000000
0.243561 0.331940 0.000397
0.300079 0.343536 0.006439
0.353119 0.352325 0.017303
0.399384 0.353607 0.023071
0.440247 0.351196 0.025177
0.490021 0.332245 0.019409
0.541809 0.309204 0.011353
0.580994 0.293182 0.009979
0.618561 0.277374 0.008728
0.652100 0.278900 0.014130
0.684784 0.280701 0.018646
0.716675 0.288086 0.021912
0.747955 0.296173 0.024780
0.777405 0.307556 0.025787
0.806152 0.319641 0.026245
0.832611 0.333954 0.026062
0.858276 0.348877 0.025421
0.881073 0.364777 0.025024
0.903412 0.380707 0.024414
0.922852 0.398163 0.024475
0.942108 0.415649 0.024475
0.958893 0.433960 0.026062
0.975616 0.451874 0.027069
0.992706 0.468933 0.029419
1.000000 0.485840 0.031647
0.000000 0.269135 0.013672
0.000000 0.279388 0.016052
0.009857 0.289093 0.018829
0.038513 0.300690 0.013092
0.068848 0.312500 0.006897
0.131805 0.325745 0.005035
0.191803 0.338531 0.003265
0.247131 0.352417 0.003510
0.302734 0.366211 0.006561
0.356293 0.376465 0.016998
0.405060 0.384338 0.026489
0.445892 0.383514 0.029907
0.486664 0.381165 0.031189
0.536926 0.360962 0.024414
0.587585 0.337585 0.015930
0.625854 0.321564 0.014282
0.662476 0.304535 0.011597
0.695251 0.306061 0.016205
0.727448 0.307922 0.019379
0.758728 0.315674 0.022369
0.788208 0.324493 0.024628
0.816559 0.336548 0.025055
0.841675 0.350281 0.025696
0.866608 0.365540 0.025055
0.887787 0.382294 0.025177
0.909363 0.398590 0.024872
0.927704 0.417236 0.026062
0.946259 0.435272 0.026367
0.962891 0.453491 0.029022
0.979431 0.471649 0.030792
0.996094 0.488373 0.033813
1.000000 0.505402 0.036377
0.000000 0.287506 0.016052
0.000000 0.298462 0.017731
0.012848 0.308929 0.019623
0.043671 0.320679 0.015472
0.075775 0.332520 0.010254
0.138031 0.346497 0.008484
0.197601 0.359802 0.006836
0.251160 0.374237 0.006134
0.305908 0.388123 0.008453
0.361847 0.402008 0.017395
0.411194 0.411194 0.026489
0.451813 0.417084 0.034363
0.492523 0.416473 0.036713
0.533081 0.414276 0.036713
0.582184 0.393738 0.029602
0.631683 0.370300 0.020905
0.668976 0.352997 0.017822
0.704651 0.334900 0.014038
0.736847 0.336182 0.017242
0.768494 0.337677 0.019379
0.797974 0.346100 0.021790
0.826324 0.355194 0.023438
0.850922 0.368958 0.024353
0.874481 0.383514 0.024933
0.895020 0.400757 0.025269
0.914825 0.418152 0.025909
0.932831 0.437500 0.027496
0.950500 0.456482 0.028992
0.967163 0.474548 0.032196
0.983612 0.492676 0.035156
0.999847 0.508911 0.038727
1.000000 0.525391 0.041840
0.000000 0.307037 0.019287
0.003357 0.319061 0.020355
0.016632 0.330017 0.021759
0.050415 0.342621 0.017761
0.084045 0.354736 0.013977
0.146210 0.368713 0.012329
0.204803 0.382996 0.010590
0.256989 0.397552 0.009674
0.310211 0.412201 0.009979
0.365143 0.426880 0.017212
0.417938 0.439423 0.026489
0.460114 0.446442 0.035126
0.498352 0.452881 0.041931
0.537964 0.452637 0.042999
0.576935 0.451538 0.043365
0.624695 0.431366 0.036133
0.672729 0.408020 0.027374
0.709106 0.389740 0.023132
0.743622 0.370483 0.016937
0.775452 0.371521 0.019012
0.805664 0.372040 0.019531
0.833954 0.380707 0.021606
0.858429 0.391083 0.023438
0.881531 0.405548 0.024475
0.901520 0.420929 0.026245
0.920898 0.438812 0.027008
0.937408 0.457977 0.030334
0.954498 0.477814 0.032257
0.971405 0.495544 0.036560
0.987671 0.513489 0.040283
1.000000 0.530243 0.043945
1.000000 0.546448 0.047577
0.000000 0.327301 0.023315
0.007202 0.339935 0.023621
0.020172 0.352081 0.024414
0.056702 0.365417 0.020844
0.093353 0.378326 0.017456
0.155273 0.392487 0.015961
0.213806 0.406860 0.014435
0.264191 0.422089 0.013214
0.316162 0.437317 0.013519
0.369720 0.453339 0.017181
0.421692 0.466492 0.024872
0.468506 0.476349 0.035553
0.508209 0.483887 0.043243
0.543121 0.491455 0.048218
0.580963 0.492126 0.049591
0.618286 0.492523 0.050598
0.664703 0.472351 0.043304
0.711426 0.449188 0.034424
0.746704 0.429626 0.027924
0.780457 0.409454 0.020050
0.810913 0.409363 0.020447
0.840332 0.409210 0.020081
0.864624 0.419128 0.022095
0.887390 0.430054 0.024261
0.907318 0.444977 0.026398
0.926361 0.460449 0.028717
0.942505 0.479736 0.032471
0.958527 0.499268 0.036438
0.975281 0.516724 0.041107
0.991882 0.534180 0.045868
1.000000 0.551392 0.049622
1.000000 0.568085 0.053528
0.000000 0.350037 0.027496
0.011932 0.363922 0.027527
0.025177 0.376770 0.027618
0.067657 0.389984 0.024475
0.105835 0.403717 0.021301
0.166473 0.419250 0.019775
0.224548 0.433685 0.018402
0.274017 0.448883 0.017365
0.323639 0.464081 0.016693
0.375488 0.479828 0.018921
0.426605 0.495392 0.023712
0.473419 0.506683 0.033539
0.517578 0.516327 0.043549
0.553864 0.524139 0.049591
0.586243 0.532318 0.054321
0.622040 0.534393 0.055817
0.657349 0.534668 0.057281
0.702362 0.514801 0.049896
0.746735 0.492645 0.042236
0.781158 0.472321 0.034637
0.813232 0.452637 0.026276
0.842712 0.451874 0.025787
0.868042 0.451935 0.024658
0.890686 0.462341 0.026703
0.910767 0.473175 0.029480
0.929779 0.488159 0.032104
0.946747 0.504242 0.036530
0.962158 0.523682 0.040985
0.979004 0.539825 0.046082
0.995758 0.557159 0.050873
1.000000 0.573090 0.055267
1.000000 0.590179 0.059235
0.004913 0.374298 0.031738
0.016632 0.388794 0.031586
0.030121 0.402802 0.031281
0.076721 0.416016 0.028076
0.120544 0.429810 0.025085
0.180145 0.446411 0.023621
0.237061 0.462006 0.022247
0.285156 0.477142 0.021454
0.333740 0.492310 0.020691
0.382568 0.507629 0.020996
0.431946 0.522736 0.024780
0.478882 0.537201 0.032196
0.523132 0.548248 0.041168
0.563599 0.557556 0.050171
0.597534 0.566162 0.055756
0.627106 0.575073 0.059509
0.660889 0.577179 0.061646
0.694305 0.577393 0.063599
0.737091 0.558533 0.057526
0.779877 0.536926 0.050629
0.812408 0.517334 0.042450
0.843384 0.498047 0.033997
0.868927 0.497284 0.032654
0.892578 0.497406 0.031555
0.912659 0.507599 0.034027
0.931915 0.518341 0.036865
0.949066 0.533508 0.041534
0.965302 0.549561 0.046265
0.982391 0.565308 0.051025
0.999573 0.581085 0.056061
1.000000 0.596588 0.060547
1.000000 0.612396 0.064819
0.009979 0.399170 0.036011
0.022247 0.416168 0.035278
0.036530 0.430634 0.035034
0.090515 0.443909 0.032166
0.136597 0.457642 0.029297
0.193695 0.474457 0.028015
0.249939 0.490692 0.026611
0.297729 0.506378 0.025787
0.344696 0.521240 0.024841
0.391724 0.536011 0.024811
0.438812 0.551361 0.025909
0.484528 0.566040 0.031494
0.529297 0.579590 0.039429
0.569916 0.589752 0.048309
0.607300 0.598846 0.056427
0.637909 0.607727 0.061249
0.666534 0.617126 0.064697
0.698761 0.619263 0.067108
0.729889 0.620087 0.069641
0.770874 0.601562 0.063995
0.808838 0.579865 0.058990
0.840027 0.560516 0.050903
0.867950 0.543243 0.043518
0.891632 0.542725 0.041931
0.913300 0.543335 0.040680
0.932739 0.553314 0.043549
0.951355 0.563629 0.046722
0.968048 0.578857 0.051666
0.986023 0.592194 0.056305
1.000000 0.607483 0.061371
1.000000 0.621613 0.066101
1.000000 0.636749 0.070557
0.015381 0.424225 0.040344
0.027740 0.442505 0.039490
0.042633 0.459412 0.038879
0.100464 0.472412 0.036163
0.153809 0.485992 0.033508
0.209076 0.502869 0.032349
0.263031 0.519531 0.031342
0.310699 0.535431 0.030273
0.357300 0.550720 0.029236
0.402039 0.565033 0.028809
0.447388 0.579712 0.029297
0.491394 0.595001 0.031769
0.534851 0.608765 0.037842
0.576233 0.621063 0.047089
0.613861 0.631256 0.055023
0.647522 0.639984 0.062012
0.677185 0.649231 0.066376
0.704620 0.658905 0.069855
0.734589 0.661499 0.072540
0.763947 0.662720 0.075348
0.800323 0.643921 0.071503
0.835602 0.622162 0.067474
0.863525 0.604858 0.060455
0.889954 0.588257 0.053436
0.911835 0.588348 0.051971
0.933014 0.589325 0.050812
0.951904 0.598816 0.053741
0.970520 0.608795 0.057129
0.988770 0.621674 0.061768
1.000000 0.634705 0.066437
1.000000 0.648193 0.071472
1.000000 0.661957 0.076416
0.020691 0.450562 0.044861
0.037811 0.471344 0.042786
0.053467 0.489258 0.041992
0.117493 0.502869 0.040405
0.172638 0.516205 0.037842
0.225800 0.532257 0.036804
0.278381 0.548889 0.035858
0.324829 0.564758 0.034912
0.370728 0.580170 0.033905
0.414032 0.594269 0.033630
0.457245 0.608398 0.033264
0.499542 0.622894 0.034424
0.541992 0.637512 0.037720
0.583008 0.650421 0.045044
0.621307 0.661163 0.054169
0.655334 0.670074 0.061768
0.686890 0.679474 0.067932
0.714813 0.689117 0.071716
0.740021 0.698425 0.075104
0.768463 0.701080 0.077850
0.795624 0.702698 0.080627
0.829681 0.684235 0.077362
0.860626 0.662476 0.075195
0.887115 0.645782 0.068542
0.911713 0.631317 0.062775
0.932983 0.631592 0.061401
0.953400 0.631622 0.060577
0.972382 0.640991 0.063538
0.990753 0.649200 0.066833
1.000000 0.661682 0.071472
1.000000 0.673676 0.076813
1.000000 0.687042 0.081726
0.026306 0.477264 0.049408
0.044647 0.498779 0.047089
0.064636 0.519104 0.044861
0.130951 0.533081 0.043610
0.192261 0.546906 0.042145
0.244110 0.562561 0.041260
0.294891 0.578400 0.040405
0.340454 0.594177 0.039429
0.385071 0.609528 0.038727
0.426941 0.623444 0.038452
0.468781 0.637482 0.038208
0.509247 0.651062 0.038055
0.550232 0.665161 0.040283
0.590332 0.679047 0.044891
0.628082 0.690491 0.052155
0.662781 0.699310 0.061249
0.694824 0.708740 0.067932
0.724457 0.718567 0.073334
0.750366 0.727875 0.077026
0.774048 0.737030 0.080078
0.800079 0.740112 0.082916
0.825684 0.742126 0.085724
0.855377 0.723724 0.084106
0.884583 0.701996 0.082489
0.909363 0.687225 0.077087
0.933197 0.673553 0.071716
0.953949 0.672913 0.070892
0.974274 0.672760 0.070190
0.992737 0.680450 0.073090
1.000000 0.688446 0.076416
1.000000 0.700165 0.081726
1.000000 0.712067 0.087067
0.032349 0.505981 0.054260
0.067047 0.528992 0.050812
0.087585 0.549835 0.048370
0.152161 0.563721 0.047791
0.214203 0.577667 0.046570
0.263947 0.593262 0.045990
0.313629 0.608612 0.044952
0.358215 0.623291 0.044037
0.401947 0.638580 0.043365
0.442657 0.652283 0.043121
0.482513 0.665680 0.042847
0.521027 0.678680 0.042450
0.560028 0.692017 0.043121
0.598724 0.705658 0.046326
0.635437 0.717804 0.051910
0.669495 0.726959 0.060059
0.702423 0.736115 0.068420
0.732605 0.745697 0.074432
0.760681 0.756165 0.079346
0.784973 0.765686 0.082581
0.807404 0.774658 0.085785
0.832397 0.777924 0.088684
0.855682 0.779327 0.091614
0.883911 0.760864 0.090454
0.909119 0.740509 0.089142
0.933014 0.726318 0.084015
0.954193 0.712341 0.080292
0.974762 0.711761 0.079498
0.993835 0.711884 0.079468
1.000000 0.719269 0.082336
1.000000 0.724701 0.085205
1.000000 0.736267 0.090607
0.038513 0.534851 0.058960
0.076080 0.558258 0.055420
0.112335 0.580719 0.052185
0.176056 0.594421 0.051727
0.236969 0.608490 0.050995
0.285553 0.624023 0.050385
0.333252 0.639160 0.049469
0.377014 0.653381 0.048737
0.419647 0.667572 0.047913
0.459656 0.681122 0.047638
0.498291 0.694366 0.047363
0.534729 0.706665 0.046936
0.571533 0.719299 0.047424
0.608521 0.732330 0.048950
0.643829 0.744080 0.053192
0.676819 0.753937 0.059906
0.709106 0.763428 0.067261
0.740295 0.772675 0.075195
