Shadow's Play/assets/LUT/F-8700-V2-STD.cube
# Copyright: (C) Copyright 2016 by IWLTBAP
# Cannot be resold, shared or otherwise redistributed
# Website: http://luts.iwltbap.com
TITLE "IWLTBAP 8700 V2 (Rec.709)"
LUT_3D_SIZE 5
DOMAIN_MIN 0.000000 0.000000 0.000000
DOMAIN_MAX 0.903226 0.903226 0.903226
0.000000 0.000000 0.000000
0.157593 0.031708 0.000336
0.372284 0.054901 0.000000
0.603577 0.093628 0.019226
0.834564 0.143646 0.053192
0.000000 0.120850 0.010437
0.234070 0.128479 0.000000
0.474854 0.150543 0.000854
0.719055 0.214661 0.023621
0.920288 0.306519 0.019287
0.000000 0.235138 0.009979
0.242310 0.311310 0.000061
0.572845 0.253815 0.005341
0.795990 0.304962 0.026703
0.955261 0.415619 0.023651
0.004913 0.374298 0.031738
0.285156 0.477142 0.021454
0.597534 0.566162 0.055756
0.843384 0.498047 0.033997
0.982391 0.565308 0.051025
0.045227 0.564209 0.063721
0.397888 0.681976 0.053589
0.652466 0.767700 0.055847
0.849213 0.836182 0.094330
0.994354 0.784576 0.094849
0.000000 0.027069 0.118835
0.066132 0.059052 0.115814
0.287964 0.085266 0.111877
0.550842 0.141052 0.134491
0.856079 0.219757 0.132782
0.000000 0.115662 0.156097
0.077118 0.176971 0.201050
0.406616 0.238831 0.194916
0.728363 0.287079 0.158325
0.939209 0.378510 0.153107
0.000000 0.336395 0.291595
0.073029 0.349304 0.220856
0.501068 0.363647 0.117462
0.767395 0.438446 0.168579
0.948212 0.557922 0.172668
0.027527 0.513062 0.340942
0.098816 0.506592 0.227020
0.474243 0.607574 0.185730
0.819061 0.621002 0.129242
0.971893 0.689697 0.171661
0.054657 0.650543 0.367065
0.220612 0.724091 0.278107
0.574341 0.787689 0.297607
0.835144 0.868805 0.204193
0.996155 0.848999 0.159790
0.000000 0.083923 0.236328
0.010742 0.102844 0.225922
0.153290 0.129883 0.216309
0.492371 0.163635 0.193329
0.792999 0.273407 0.245239
0.000000 0.152161 0.284943
0.042084 0.207703 0.353394
0.226868 0.266876 0.333313
0.620789 0.357147 0.332184
0.884644 0.471375 0.392365
0.000000 0.235321 0.324951
0.062225 0.309692 0.403503
0.263550 0.420105 0.461304
0.712555 0.536011 0.465515
0.934326 0.621429 0.491730
0.049683 0.519531 0.549500
0.100891 0.607391 0.611664
0.298553 0.644165 0.509460
0.791290 0.702301 0.392303
0.958527 0.767242 0.487427
0.097870 0.772644 0.749329
0.153046 0.783966 0.670898
0.498169 0.817139 0.514221
0.810822 0.886505 0.494354
0.995911 0.891052 0.243225
0.000000 0.156860 0.395386
0.018555 0.169189 0.374756
0.060272 0.185883 0.360199
0.355957 0.217102 0.303925
0.751740 0.295349 0.305389
0.002136 0.226013 0.451355
0.046265 0.279053 0.530304
0.105103 0.305939 0.518219
0.521881 0.402069 0.447052
0.836121 0.497070 0.489746
0.017212 0.281158 0.498199
0.063263 0.346680 0.576263
0.150757 0.425262 0.651367
0.622375 0.570038 0.606415
0.890442 0.662476 0.655548
0.040314 0.394867 0.561157
0.088470 0.471008 0.636353
0.189392 0.567719 0.713654
0.731262 0.760773 0.731964
0.940247 0.813232 0.748444
0.098755 0.667603 0.767181
0.139252 0.728027 0.817780
0.237640 0.816193 0.867950
0.793243 0.903534 0.736145
0.979248 0.921234 0.649353
0.012939 0.260651 0.608337
0.044312 0.270325 0.585846
0.066498 0.274963 0.560211
0.166229 0.320740 0.553253
0.703552 0.376526 0.433228
0.030731 0.329163 0.656769
0.070343 0.378387 0.722321
0.102264 0.394623 0.716888
0.282227 0.466766 0.706757
0.785919 0.553894 0.645844
0.044739 0.382172 0.695007
0.086151 0.438904 0.758331
0.142944 0.495880 0.815643
0.452545 0.608307 0.809662
0.855896 0.674713 0.765625
0.062103 0.452698 0.740692
0.104279 0.517151 0.799225
0.177338 0.593597 0.854126
0.630463 0.757812 0.883453
0.915283 0.821869 0.862427
0.090057 0.584198 0.798187
0.130676 0.639648 0.846039
0.220886 0.709564 0.890045
0.673767 0.860687 0.917206
0.949341 0.946259 0.899506
