Shadow's Play/assets/LUT/IWLTBAP Arapaho - Standard.cube
# Copyright: (C) Copyright 2016 by IWLTBAP for SmallHD
# Cannot be resold, shared or otherwise redistributed
# Website: http://luts.iwltbap.com
TITLE "IWLTBAP Arapaho (Rec.709)"
#LUT size
LUT_3D_SIZE 33
#LUT data points
0 0 0
0 0 0
0.001801 0 0
0.026306 0 0
0.053833 0.003052 0
0.086884 0.009979 0
0.123352 0.016815 0
0.164093 0.025452 0
0.197266 0.031952 0
0.228088 0.037292 0
0.257538 0.04303 0
0.283447 0.0466 0
0.307373 0.047974 0
0.332245 0.050262 0
0.358612 0.053131 0
0.385529 0.056152 0
0.410675 0.059662 0
0.436401 0.063049 0
0.462463 0.066315 0
0.485168 0.069519 0
0.508331 0.072418 0
0.533478 0.075165 0
0.558136 0.077789 0
0.583191 0.079895 0
0.608368 0.081543 0
0.635101 0.085114 0
0.659363 0.089264 0.004028
0.682343 0.093506 0.010071
0.709198 0.098145 0.017578
0.7388 0.103119 0.024933
0.765564 0.108185 0.026917
0.811279 0.113495 0.03476
0.835083 0.128326 0.046387
0 0.004608 0
0.009521 0.004425 0
0.045898 0.007965 0
0.06665 0.01532 0
0.099396 0.024719 0
0.128601 0.030731 0
0.166077 0.036621 0
0.195526 0.041656 0
0.220642 0.047211 0
0.246857 0.050354 0
0.272278 0.052917 0
0.296387 0.055908 0
0.319824 0.057953 0
0.345154 0.059906 0
0.372314 0.06189 0
0.399963 0.062775 0
0.42691 0.063751 0
0.452423 0.065979 0
0.475494 0.069031 0
0.496185 0.07196 0
0.51889 0.074432 0
0.544464 0.077057 0
0.569702 0.079926 0
0.595734 0.082458 0
0.620789 0.08548 0
0.645447 0.088593 0
0.667786 0.093048 0.002808
0.691223 0.097137 0.009552
0.720978 0.10144 0.019562
0.746033 0.106476 0.024109
0.773438 0.111481 0.026398
0.817413 0.118774 0.035889
0.840179 0.134216 0.04715
0.036652 0.054321 0
0.050323 0.051666 0
0.07666 0.048462 0
0.108246 0.046295 0
0.134583 0.04538 0
0.162506 0.045959 0
0.191864 0.049835 0
0.21698 0.054016 0
0.238159 0.05719 0
0.261719 0.061981 0
0.285736 0.064362 0
0.309174 0.066101 0
0.333282 0.068451 0
0.360291 0.070465 0
0.387634 0.071594 0
0.414612 0.070923 0
0.441528 0.070129 0
0.466644 0.07074 0
0.488831 0.072174 0
0.509888 0.074188 0
0.531799 0.076813 0
0.555786 0.07959 0
0.582001 0.082489 0
0.607697 0.086334 0
0.634094 0.089722 0
0.656097 0.092773 0
0.674957 0.096466 0.001709
0.701294 0.100189 0.010864
0.730133 0.104858 0.019775
0.754425 0.110352 0.023468
0.783447 0.114655 0.026398
0.820923 0.123505 0.035095
0.846252 0.138794 0.045807
0.072388 0.079315 0
0.085876 0.081299 0
0.106873 0.082397 0
0.140259 0.077209 0
0.164917 0.070953 0
0.189514 0.062836 0
0.217255 0.061707 0
0.236389 0.065155 0
0.256653 0.06842 0
0.277039 0.072327 0
0.298981 0.076324 0
0.321625 0.079987 0
0.345856 0.082397 0
0.371765 0.084625 0
0.399017 0.086395 0
0.425629 0.085876 0
0.451843 0.084167 0
0.477264 0.083344 0
0.502045 0.083069 0
0.527588 0.08313 0
0.553131 0.084198 0
0.576202 0.086884 0
0.597717 0.090363 0
0.620026 0.093811 0
0.645203 0.096924 0
0.667145 0.100433 0
0.687134 0.103638 0
0.714478 0.105377 0.010742
0.739929 0.109863 0.018188
0.765259 0.115601 0.022247
0.794891 0.119751 0.02597
0.824707 0.130341 0.037354
0.84787 0.147064 0.048492
0.109711 0.100037 0
0.11972 0.102142 0
0.13205 0.10434 0
0.159088 0.106384 0
0.187042 0.095123 0
0.209381 0.085083 0
0.233429 0.077789 0
0.255798 0.076324 0
0.273041 0.079193 0
0.293732 0.082367 0
0.315002 0.086578 0
0.337952 0.090729 0
0.360199 0.094696 0
0.383331 0.098267 0
0.40863 0.101074 0
0.434631 0.102173 0
0.460541 0.101776 0
0.486389 0.101807 0
0.512085 0.101898 0
0.538849 0.101654 0
0.56665 0.101593 0
0.59317 0.102203 0
0.617584 0.103394 0
0.640808 0.104584 0
0.665253 0.106598 0
0.689972 0.109436 0
0.709106 0.113678 0.001831
0.732178 0.114594 0.011108
0.750763 0.117584 0.01828
0.774994 0.122833 0.023682
0.804993 0.127716 0.02655
0.827728 0.142212 0.038971
0.848541 0.157562 0.052002
0.134552 0.120636 0
0.145081 0.122253 0
0.160461 0.124451 0
0.178284 0.126343 0
0.199615 0.124237 0
0.224579 0.110748 0
0.247925 0.101471 0
0.27124 0.095093 0
0.29306 0.092194 0
0.312531 0.093719 0
0.334015 0.097198 0
0.355469 0.10141 0
0.379333 0.104919 0
0.401459 0.108551 0
0.425323 0.112762 0
0.449768 0.117035 0
0.473267 0.119995 0
0.497284 0.121124 0
0.522919 0.121918 0
0.549896 0.123291 0
0.577789 0.125122 0
0.605103 0.126862 0
0.630157 0.128265 0
0.654297 0.128967 0
0.678528 0.129791 0
0.702393 0.131439 0
0.723297 0.134521 0.002014
0.744446 0.134979 0.01062
0.764557 0.135834 0.01886
0.786987 0.139618 0.026367
0.812408 0.146271 0.030518
0.834595 0.161499 0.041412
0.856201 0.177399 0.053955
0.160431 0.142517 0
0.173248 0.144135 0
0.186249 0.145416 0
0.205475 0.146606 0
0.222565 0.146942 0
0.240875 0.141876 0
0.263062 0.127472 0
0.287292 0.119781 0
0.311523 0.112854 0
0.333008 0.108093 0
0.355255 0.108521 0
0.37915 0.111938 0
0.399536 0.116028 0
0.42215 0.119781 0
0.445038 0.123688 0
0.469666 0.127991 0
0.49411 0.132446 0
0.51712 0.136108 0
0.540344 0.139099 0
0.565735 0.141876 0
0.592285 0.144531 0
0.618439 0.14743 0
0.643066 0.150024 0
0.666656 0.152252 0
0.689301 0.154602 0
0.711792 0.156738 0
0.733673 0.15921 0.000275
0.75415 0.160034 0.008026
0.774475 0.160889 0.016357
0.796753 0.164703 0.024963
0.820587 0.169861 0.032471
0.842194 0.185638 0.042877
0.864685 0.202118 0.054199
0.192139 0.164581 0
0.205383 0.167542 0
0.218903 0.169128 0
0.235443 0.170685 0
0.24942 0.170532 0
0.268799 0.170044 0
0.282379 0.163391 0
0.306763 0.147125 0
0.330902 0.139801 0
0.353333 0.134064 0
0.375519 0.129364 0
0.401642 0.12796 0
0.4263 0.129883 0
0.446777 0.132721 0
0.469147 0.136292 0
0.492126 0.140198 0
0.516541 0.14447 0
0.541595 0.148132 0
0.565857 0.151337 0
0.590179 0.155273 0
0.614349 0.159637 0
0.637604 0.164642 0
0.660187 0.169586 0
0.682587 0.173279 0
0.704224 0.176605 0
0.726471 0.179932 0
0.747101 0.182861 0.000916
0.765778 0.184479 0.007507
0.785126 0.18634 0.01416
0.807617 0.191437 0.022064
0.830841 0.197144 0.029755
0.853241 0.211151 0.040344
0.876251 0.22757 0.052124
0.222229 0.187683 0
0.235535 0.191254 0
0.248749 0.194275 0
0.265198 0.195801 0
0.280334 0.196472 0
0.291779 0.195038 0
0.311249 0.195343 0
0.323883 0.186493 0
0.351013 0.169098 0
0.375488 0.16214 0
0.398376 0.156433 0
0.424622 0.151611 0
0.452667 0.147491 0
0.477753 0.147095 0
0.498413 0.14978 0
0.51944 0.153625 0
0.540497 0.157654 0
0.565399 0.161255 0
0.590942 0.16449 0
0.615631 0.168671 0
0.639618 0.173615 0
0.661621 0.178986 0
0.682495 0.184753 0
0.703308 0.189911 0
0.72287 0.195038 0
0.743317 0.200836 0
0.763885 0.205963 0.005402
0.781952 0.208466 0.011505
0.799988 0.210052 0.017273
0.821442 0.214233 0.024567
0.844788 0.22052 0.032349
0.866577 0.234436 0.043488
0.888977 0.249969 0.055725
0.254608 0.212616 0
0.268311 0.216339 0
0.281403 0.219849 0
0.293732 0.221863 0
0.308441 0.223419 0
0.323547 0.222565 0
0.334778 0.221436 0
0.354156 0.222168 0
0.367401 0.211182 0
0.398163 0.192596 0
0.423309 0.185364 0
0.450165 0.179108 0
0.479187 0.173737 0
0.506714 0.16861 0
0.53125 0.166229 0
0.553558 0.167114 0
0.573914 0.170471 0
0.593231 0.175171 0
0.61618 0.179504 0
0.639862 0.184326 0
0.663239 0.189331 0
0.685425 0.194031 0
0.706207 0.199066 0
0.726379 0.204285 0
0.745453 0.210083 0
0.763275 0.216736 0.003662
0.782776 0.223663 0.011536
0.802429 0.229248 0.017822
0.818604 0.234039 0.024353
0.837646 0.238312 0.030579
0.85965 0.244324 0.038544
0.880005 0.258759 0.049774
0.901794 0.274139 0.061005
0.290161 0.238098 0
0.303345 0.241913 0
0.315521 0.245667 0
0.326111 0.247711 0
0.337524 0.24942 0
0.355377 0.249115 0
0.367249 0.248596 0
0.38031 0.248962 0
0.399658 0.249054 0
0.413452 0.234283 0
0.44754 0.217773 0
0.475281 0.210724 0
0.504883 0.203857 0
0.532776 0.198029 0
0.557953 0.192902 0
0.582306 0.188873 0
0.606323 0.187714 0
0.626465 0.19046 0
0.644562 0.195251 0
0.6651 0.200195 0
0.687042 0.205475 0
0.707764 0.210236 0
0.72818 0.214844 0
0.748352 0.219604 0
0.767853 0.225067 0
0.7854 0.23172 0.008209
0.803284 0.23877 0.017029
0.823151 0.245697 0.023285
0.840607 0.253204 0.028961
0.858124 0.259521 0.035522
0.876404 0.266571 0.042999
0.895447 0.281158 0.05307
0.915405 0.297058 0.063995
0.327789 0.26297 0
0.339935 0.266449 0
0.351196 0.270203 0
0.360748 0.272552 0
0.370728 0.27417 0
0.385651 0.274292 0
0.400513 0.274261 0
0.410553 0.274597 0
0.428131 0.277283 0
0.447876 0.275909 0
0.462616 0.26059 0
0.498047 0.24707 0
0.527283 0.239288 0
0.557465 0.231934 0
0.583679 0.224365 0
0.606506 0.218079 0
0.631287 0.214142 0
0.654968 0.212006 0
0.675598 0.213013 0
0.693665 0.216339 0
0.712646 0.221375 0
0.731659 0.227295 0
0.749969 0.232269 0
0.769043 0.237061 0
0.788483 0.242462 0.004761
0.80661 0.248718 0.011505
0.824463 0.255524 0.01944
0.842468 0.262695 0.025085
0.861023 0.27066 0.029144
0.879395 0.278534 0.035583
0.896515 0.286469 0.042206
0.913879 0.300415 0.052155
0.931335 0.315857 0.063293
0.36618 0.288177 0
0.377197 0.291992 0
0.388336 0.295288 0
0.396881 0.29715 0
0.405975 0.299011 0
0.419281 0.299561 0
0.431305 0.299805 0
0.444183 0.300659 0
0.455933 0.302063 0
0.479828 0.307739 0
0.496643 0.304596 0
0.513275 0.289825 0
0.547852 0.277771 0
0.578125 0.26889 0
0.607758 0.260498 0
0.631226 0.252319 0
0.653595 0.245453 0
0.67749 0.242035 0
0.699005 0.238892 0
0.719757 0.236908 0
0.738678 0.238342 0
0.755859 0.243774 0
0.771667 0.249817 0
0.7883 0.254822 0.004242
0.806732 0.260406 0.008453
0.824951 0.266785 0.014252
0.843994 0.273376 0.019348
0.861969 0.280334 0.023315
0.879791 0.287659 0.027008
0.897247 0.295441 0.032684
0.914764 0.303894 0.039398
0.931793 0.317993 0.049713
0.948547 0.333252 0.061188
0.408569 0.313934 0
0.416595 0.318298 0
0.426636 0.321899 0
0.434509 0.322876 0
0.442902 0.324615 0
0.454163 0.325623 0
0.466736 0.326508 0
0.477966 0.327393 0
0.48996 0.32901 0
0.506348 0.332611 0
0.530365 0.338318 0
0.544525 0.333008 0
0.563385 0.319061 0
0.597809 0.30658 0
0.627014 0.296997 0
0.653656 0.289337 0
0.675537 0.28186 0
0.697906 0.274658 0
0.719055 0.269775 0
0.739258 0.265503 0
0.758484 0.26178 0
0.776459 0.262085 0
0.791901 0.266418 0
0.806854 0.271973 0.004547
0.823853 0.277527 0.009064
0.841187 0.28418 0.015656
0.859558 0.291229 0.020905
0.878601 0.297943 0.022278
0.895905 0.304993 0.026093
0.91214 0.312286 0.03244
0.928558 0.320709 0.039551
0.945648 0.3349 0.049774
0.962952 0.350494 0.061859
0.450317 0.34079 0
0.457336 0.344879 0
0.464752 0.349152 0
0.471558 0.349976 0
0.479218 0.351135 0
0.489929 0.352875 0
0.501617 0.354218 0
0.514191 0.35553 0
0.523499 0.356445 0
0.536926 0.3591 0
0.556366 0.36496 0
0.576294 0.368744 0
0.589844 0.363434 0
0.609985 0.349152 0
0.644623 0.334686 0
0.670715 0.326263 0
0.694519 0.318665 0
0.716522 0.310944 0
0.737793 0.302551 0
0.757263 0.296387 0
0.776367 0.291962 0
0.793213 0.288391 0
0.809479 0.287079 0
0.825928 0.289795 0
0.842194 0.295013 0.005737
0.858917 0.301331 0.01236
0.874695 0.308685 0.021729
0.893036 0.315765 0.02478
0.910706 0.323059 0.027588
0.927155 0.330933 0.034454
0.942474 0.338959 0.041992
0.959381 0.352478 0.052063
0.976898 0.367554 0.063782
0.488586 0.368469 0
0.495911 0.372101 0
0.502197 0.376434 0
0.50705 0.377411 0
0.513733 0.378693 0
0.524261 0.381073 0
0.536316 0.383301 0
0.548798 0.38504 0
0.557953 0.386108 0
0.566772 0.387299 0
0.5802 0.3909 0
0.600739 0.398163 0
0.619202 0.400696 0.002319
0.632751 0.394867 0.006042
0.653778 0.37912 0.002411
0.688019 0.363922 0
0.71048 0.355286 0
0.732788 0.347687 0
0.75415 0.339844 0
0.774231 0.330841 0
0.792847 0.32428 0
0.810059 0.319336 0
0.826477 0.315887 0
0.842743 0.313599 0
0.860321 0.315155 0
0.877167 0.319702 0.005066
0.892517 0.326111 0.015137
0.907745 0.333679 0.026215
0.925262 0.341644 0.031525
0.942902 0.350647 0.036743
0.958069 0.359039 0.045258
0.974182 0.371735 0.055664
0.989655 0.385284 0.066132
0.52594 0.397156 0.003784
0.531616 0.400085 0.004242
0.537292 0.403564 0.005615
0.540771 0.40451 0.005859
0.545837 0.405792 0.006104
0.555237 0.408325 0.006775
0.566406 0.411346 0.005737
0.578888 0.413483 0.003662
0.590149 0.415436 0.001801
0.598206 0.416443 0.001312
0.606873 0.418091 0.001038
0.620392 0.422455 0.000183
0.642365 0.430908 0
0.660431 0.431702 0.000122
0.672302 0.424316 0.003754
0.695099 0.407684 0
0.728912 0.394287 0
0.747803 0.384338 0
0.769043 0.377258 0
0.789337 0.368683 0
0.808197 0.359741 0
0.825806 0.35257 0
0.842499 0.347687 0
0.859009 0.344269 0
0.875397 0.341583 0
0.893005 0.341644 0
0.910828 0.345306 0.005066
0.925262 0.351379 0.019531
0.940063 0.360016 0.032288
0.957703 0.369385 0.038422
0.973846 0.378876 0.046387
0.988403 0.391388 0.058075
0.997437 0.40387 0.068909
0.55896 0.424927 0.020477
0.563049 0.426819 0.020264
0.56778 0.429352 0.020844
0.570465 0.430084 0.020935
0.574524 0.431122 0.021027
0.583069 0.433411 0.019562
0.592834 0.43634 0.016663
0.605255 0.439148 0.011047
0.616425 0.441315 0.007141
0.626709 0.443146 0.004272
0.63443 0.444489 0.003174
0.643738 0.446899 0.001038
0.659973 0.452911 0
0.681732 0.46106 0
0.69754 0.459869 0
0.708435 0.451202 0
0.731934 0.43573 0
0.765137 0.424103 0
0.78363 0.413727 0
0.80307 0.404724 0
0.822205 0.395752 0
0.840698 0.387878 0
0.857666 0.381653 0
0.874268 0.376831 0
0.890594 0.372589 0
0.907471 0.369537 0
0.926361 0.368866 0
0.944061 0.370972 0.008453
0.957947 0.378143 0.024078
0.972473 0.386993 0.035461
0.987732 0.396759 0.043762
0.997681 0.409882 0.058075
0.999939 0.42276 0.070679
0.58783 0.450836 0.035553
0.591095 0.452118 0.034546
0.595184 0.453888 0.032806
0.597992 0.454773 0.031982
0.601318 0.455597 0.031158
0.609253 0.457642 0.027954
0.61853 0.460266 0.0242
0.630402 0.463226 0.017548
0.641968 0.466064 0.011566
0.651825 0.46817 0.008575
0.660248 0.46991 0.006714
0.667847 0.471741 0.005035
0.678955 0.475769 0.002014
0.697449 0.483368 0
0.717957 0.490021 0
0.731415 0.487244 0
0.743469 0.479065 0
0.766327 0.464935 0
0.798706 0.45343 0
0.819763 0.442261 0
0.836517 0.431793 0
0.85376 0.424316 0
0.871765 0.417511 0
0.887695 0.411713 0
0.905121 0.405762 0
0.922882 0.401459 0
0.940857 0.398163 0
0.960541 0.395203 0
0.976929 0.397888 0.01004
0.987885 0.404785 0.024414
0.996918 0.413818 0.03653
0.999969 0.427338 0.053925
0.999969 0.440857 0.069244
0.616516 0.476624 0.04718
0.618652 0.477722 0.04541
0.621704 0.478882 0.042053
0.625336 0.479889 0.039948
0.628693 0.480743 0.038116
0.635345 0.482544 0.034729
0.643463 0.484894 0.031342
0.653412 0.487793 0.026947
0.664886 0.490936 0.020813
0.676697 0.494202 0.015015
0.686188 0.496613 0.01178
0.693665 0.498474 0.009521
0.70166 0.501068 0.009125
0.713928 0.506439 0.006836
0.732666 0.514587 0
0.752441 0.520935 0
0.765656 0.51767 0
0.778717 0.51004 0
0.80188 0.496155 0
0.833588 0.484558 0
0.855377 0.473175 0
0.870819 0.463593 0
0.885132 0.456451 0
0.901642 0.448547 0
0.918152 0.441803 0
0.936401 0.436066 0
0.955231 0.430847 0
0.974243 0.424835 0
0.991241 0.421448 0
0.99823 0.42395 0.008179
0.999969 0.431396 0.023407
0.999969 0.444336 0.043671
0.999969 0.457764 0.062256
0.644592 0.50238 0.055573
0.646027 0.503082 0.052551
0.648071 0.504181 0.049683
0.651459 0.50531 0.048157
0.655273 0.506287 0.046204
0.66098 0.507843 0.042999
0.667633 0.509949 0.039764
0.67627 0.512878 0.036713
0.686462 0.516113 0.032166
0.698944 0.519897 0.02536
0.711029 0.523682 0.018616
0.72052 0.526489 0.014587
0.727814 0.528839 0.014191
0.736542 0.532196 0.014496
0.74884 0.537933 0.012207
0.766815 0.546356 0.002808
0.786163 0.55304 0
0.800323 0.549347 0
0.813293 0.541473 0
0.837433 0.527893 0
0.867798 0.516785 0
0.889526 0.506165 0
0.904572 0.497528 0
0.918671 0.489075 0
0.933441 0.479889 0
0.950073 0.472046 0
0.967255 0.464905 0
0.985443 0.457062 0
0.99823 0.450409 0
0.999969 0.447235 0
0.999969 0.450531 0.006256
0.999969 0.461823 0.028748
0.999969 0.474792 0.047729
0.673767 0.528931 0.062744
0.674988 0.528992 0.058685
0.676666 0.529907 0.055847
0.67923 0.531464 0.055939
0.682526 0.532654 0.054932
0.6875 0.534088 0.052185
0.693176 0.535919 0.049377
0.701355 0.538666 0.046265
0.71109 0.541992 0.042023
0.722656 0.545837 0.035095
0.735016 0.549927 0.02771
0.746185 0.553741 0.02182
0.75473 0.556763 0.019653
0.762329 0.559662 0.019775
0.770721 0.56311 0.019836
0.782806 0.569031 0.016571
0.800568 0.577698 0.006836
0.819031 0.584015 0
0.832916 0.579803 0
0.845978 0.572144 0
0.870789 0.558624 0
0.899597 0.547607 0
0.921814 0.537933 0
0.937866 0.529755 0
0.95224 0.520203 0
0.966125 0.509674 0
0.978912 0.500214 0
0.993744 0.490234 0
0.999664 0.482697 0
0.999969 0.476746 0
0.999969 0.474182 0
0.999969 0.482147 0.007904
0.999969 0.493713 0.026398
0.703583 0.556458 0.07077
0.704895 0.556183 0.066467
0.706482 0.556519 0.062927
0.708618 0.558105 0.063446
0.711243 0.559753 0.063965
0.715637 0.56131 0.062103
0.720978 0.563171 0.059357
0.728485 0.565613 0.056091
0.737183 0.568665 0.052338
0.747681 0.572144 0.045593
0.759399 0.576233 0.03775
0.771088 0.580444 0.031128
0.780579 0.584045 0.027191
0.788605 0.58725 0.025879
0.79538 0.590088 0.026398
0.802948 0.593262 0.026764
0.815247 0.599457 0.022278
0.833191 0.608551 0.011108
0.850525 0.614288 0
0.863922 0.610138 0
0.877075 0.602661 0
0.902618 0.589203 0
0.931396 0.576843 0
0.952484 0.567596 0
0.968933 0.559723 0
0.982513 0.548889 0
0.993134 0.536987 0
0.997498 0.526215 0
0.999969 0.516846 0
0.999969 0.50946 0
0.999969 0.503479 0
0.999969 0.508301 0
0.999969 0.516235 0.005127
0.731323 0.584473 0.082458
0.732697 0.584381 0.078064
0.733795 0.584229 0.073853
0.735474 0.585083 0.073425
0.737488 0.586548 0.074188
0.740814 0.587891 0.073639
0.745789 0.589844 0.071533
0.753296 0.592438 0.06778
0.761505 0.595428 0.063599
0.770905 0.598602 0.057251
0.781586 0.602325 0.049622
0.792603 0.606689 0.042603
0.803467 0.611145 0.036774
0.812775 0.614838 0.0336
0.821106 0.618134 0.031982
0.827576 0.620758 0.03186
0.834839 0.623657 0.032104
0.847137 0.629944 0.026917
0.864502 0.638824 0.016418
0.881439 0.644348 0.005737
0.89505 0.641205 0
0.907379 0.634094 0
0.933258 0.619904 0
0.963135 0.605286 0
0.980499 0.596497 0
0.993835 0.587646 0
0.999969 0.57666 0
0.999969 0.564056 0
0.999969 0.552887 0
0.999969 0.543243 0
0.999969 0.536316 0
0.999969 0.540283 0
0.999969 0.545502 0
0.754333 0.614044 0.097321
0.755066 0.613556 0.092682
0.755859 0.613342 0.088745
0.757233 0.613861 0.088104
0.759064 0.614777 0.08783
0.761871 0.61615 0.087494
0.765778 0.617828 0.086395
0.77301 0.620514 0.08252
0.781342 0.623688 0.07782
0.790314 0.626892 0.071747
0.80069 0.630219 0.064484
0.81134 0.634125 0.057831
0.822754 0.638733 0.051117
0.834259 0.643188 0.044952
0.844055 0.64682 0.040985
0.852448 0.649689 0.038208
0.85849 0.651459 0.038513
0.865295 0.653748 0.039032
0.877228 0.659729 0.034241
0.894684 0.668823 0.024902
0.912231 0.675262 0.013977
0.924988 0.672363 0
0.936951 0.664246 0
0.964783 0.648895 0
0.990082 0.632935 0
0.999481 0.62439 0
0.999878 0.61676 0
0.999939 0.605286 0
0.999939 0.591644 0
0.999939 0.580353 0
0.999939 0.571594 0
0.999969 0.574768 0
0.999969 0.57843 0
0.772827 0.645203 0.111877
0.77243 0.643341 0.106781
0.772827 0.642639 0.102997
0.773956 0.643127 0.103302
0.775543 0.644012 0.103149
0.778473 0.646118 0.103027
0.78186 0.647827 0.102905
0.788025 0.650146 0.100189
0.795502 0.653046 0.096161
0.804321 0.656403 0.090881
0.815063 0.659637 0.083954
0.826965 0.662964 0.076416
0.83905 0.666809 0.069092
0.851349 0.671051 0.061951
0.862915 0.675049 0.055573
0.872589 0.678345 0.051056
0.880615 0.680634 0.047974
0.886322 0.681702 0.048584
0.893097 0.683685 0.048767
0.904785 0.689575 0.04483
0.923553 0.69931 0.034882
0.941467 0.705078 0.024139
0.954041 0.700928 0.006775
0.966461 0.690857 0
0.991608 0.67569 0
0.999878 0.661407 0
0.999847 0.653503 0
0.999817 0.647186 0
0.999817 0.636322 0
0.999817 0.621399 0
0.999878 0.610657 0
0.999939 0.60788 0
0.999939 0.610016 0
0.793182 0.678162 0.12262
0.792114 0.675293 0.117065
0.791626 0.673157 0.11264
0.792755 0.673798 0.113434
0.794098 0.674713 0.114044
0.796661 0.676697 0.114075
0.800049 0.678925 0.113983
0.804993 0.680847 0.112732
0.811066 0.682983 0.110504
0.818909 0.685669 0.1073
0.828308 0.688629 0.10318
0.839569 0.691559 0.096954
0.851929 0.694702 0.090057
0.864929 0.698547 0.082947
0.877777 0.702728 0.075623
0.889557 0.706451 0.068329
0.899719 0.70932 0.0625
0.907806 0.711273 0.05896
0.913666 0.71228 0.059967
0.920868 0.714294 0.060394
0.932678 0.719666 0.056915
0.952637 0.729279 0.045319
0.970551 0.733673 0.033051
0.981873 0.728088 0.011597
0.991821 0.716492 0
0.999969 0.704224 0
0.999939 0.691406 0
0.999939 0.684662 0
0.999908 0.678497 0
0.999908 0.667419 0
0.999847 0.652191 0
0.999817 0.647522 0
0.999817 0.645752 0
0.816925 0.715607 0.128143
0.814911 0.710999 0.121765
0.814331 0.708435 0.116974
0.81662 0.710205 0.117676
0.81781 0.71106 0.11908
0.819 0.711823 0.119995
0.821777 0.713776 0.12027
0.82605 0.715149 0.120178
0.831451 0.7164 0.119568
