Shadow's Play/assets/LUT/IWLTBAP Arapaho - Standard.cube
# Copyright: (C) Copyright 2016 by IWLTBAP for SmallHD
# Cannot be resold, shared or otherwise redistributed
# Website: http://luts.iwltbap.com
TITLE "IWLTBAP Arapaho (Rec.709)"
#LUT size
LUT_3D_SIZE 5
#LUT data points
0 0 0
0.197266 0.031952 0
0.410675 0.059662 0
0.608368 0.081543 0
0.835083 0.128326 0.046387
0.222229 0.187683 0
0.351013 0.169098 0
0.540497 0.157654 0
0.72287 0.195038 0
0.888977 0.249969 0.055725
0.52594 0.397156 0.003784
0.590149 0.415436 0.001801
0.728912 0.394287 0
0.875397 0.341583 0
0.997437 0.40387 0.068909
0.754333 0.614044 0.097321
0.781342 0.623688 0.07782
0.85849 0.651459 0.038513
0.990082 0.632935 0
0.999969 0.57843 0
0.939178 0.881012 0.232666
0.950958 0.880371 0.224854
0.999786 0.881134 0.221741
0.999847 0.89682 0.215942
0.999878 0.848724 0.211212
0 0.052582 0.105957
0.152863 0.08313 0.138733
0.458496 0.097534 0.064667
0.668793 0.124756 0.096436
0.832489 0.167603 0.136993
0 0.212646 0.262573
0.143158 0.230042 0.252686
0.448547 0.224792 0.192566
0.685669 0.221924 0.135101
0.849182 0.25705 0.178497
0.43457 0.401367 0.158966
0.515869 0.428375 0.119843
0.686493 0.417328 0.090668
0.832458 0.384644 0.117157
0.964569 0.458344 0.187073
0.723389 0.608032 0.178741
0.743286 0.622894 0.189789
0.846741 0.659607 0.151245
0.978302 0.644531 0.067627
0.999969 0.591949 0.150024
0.915344 0.881165 0.283356
0.928345 0.885193 0.298401
0.991241 0.886719 0.295074
0.999878 0.896027 0.29126
0.999908 0.854095 0.282318
0 0.132965 0.206665
0 0.156464 0.248505
0.384979 0.187653 0.217316
0.723724 0.170959 0.147888
0.847443 0.223175 0.206573
0 0.219116 0.315308
0 0.252014 0.373657
0.410248 0.261993 0.310089
0.720917 0.257538 0.223358
0.853241 0.309143 0.290955
0 0.44104 0.528229
0.082092 0.464966 0.545868
0.486633 0.471832 0.465698
0.681305 0.480804 0.459198
0.882782 0.515442 0.424072
0.603058 0.606262 0.392242
0.628632 0.622498 0.40741
0.762573 0.660309 0.35672
0.928009 0.676727 0.291931
0.999969 0.655792 0.346405
0.86557 0.897705 0.406738
0.877991 0.901703 0.432373
0.938995 0.894531 0.449341
0.999908 0.898743 0.451172
0.999969 0.868713 0.426727
0 0.192535 0.285004
0 0.205963 0.303497
0.006348 0.224731 0.376404
0.591797 0.263367 0.285736
0.849152 0.294281 0.340302
0 0.241821 0.347534
0 0.263519 0.38269
0 0.284698 0.482361
0.589172 0.311615 0.407593
0.842682 0.34906 0.4534
0 0.406403 0.561127
0 0.424072 0.593658
0.085938 0.463562 0.68811
0.628235 0.458954 0.59964
0.840973 0.502502 0.590485
0.129089 0.648865 0.771149
0.203644 0.65741 0.774567
0.464691 0.680786 0.750488
0.748444 0.705231 0.69223
0.901459 0.723663 0.695862
0.664368 0.936859 0.537201
0.684418 0.939087 0.556702
0.836029 0.925415 0.613892
0.958038 0.908936 0.632568
0.999969 0.906769 0.587952
0 0.243805 0.352173
0 0.267883 0.382294
0 0.281464 0.416138
0.337158 0.293976 0.501892
0.73111 0.338989 0.541351
0 0.2995 0.429382
0 0.316681 0.452545
0 0.333832 0.502991
0.155212 0.323578 0.641388
0.710541 0.368225 0.655731
0 0.407837 0.562927
0 0.42041 0.584259
0 0.460815 0.674896
0.13269 0.4552 0.7836
0.717438 0.485657 0.775116
0 0.579681 0.773468
0 0.586945 0.78894
0.023865 0.622955 0.871796
0.548065 0.677246 0.851776
0.84021 0.681274 0.83139
0.389587 0.839447 0.951904
0.415741 0.838776 0.950256
0.583923 0.85672 0.932068
0.789429 0.893005 0.879333
0.946686 0.921143 0.868622
