Shadow's Play/assets/LUT/IWLTBAP Arapaho - Standard.cube
# Copyright: (C) Copyright 2016 by IWLTBAP for SmallHD
# Cannot be resold, shared or otherwise redistributed
# Website: http://luts.iwltbap.com
TITLE "IWLTBAP Arapaho (Rec.709)"
#LUT size
LUT_3D_SIZE 9
#LUT data points
0 0 0
0.053833 0.003052 0
0.197266 0.031952 0
0.307373 0.047974 0
0.410675 0.059662 0
0.508331 0.072418 0
0.608368 0.081543 0
0.709198 0.098145 0.017578
0.835083 0.128326 0.046387
0.109711 0.100037 0
0.187042 0.095123 0
0.273041 0.079193 0
0.360199 0.094696 0
0.460541 0.101776 0
0.56665 0.101593 0
0.665253 0.106598 0
0.750763 0.117584 0.01828
0.848541 0.157562 0.052002
0.222229 0.187683 0
0.280334 0.196472 0
0.351013 0.169098 0
0.452667 0.147491 0
0.540497 0.157654 0
0.639618 0.173615 0
0.72287 0.195038 0
0.799988 0.210052 0.017273
0.888977 0.249969 0.055725
0.36618 0.288177 0
0.405975 0.299011 0
0.455933 0.302063 0
0.547852 0.277771 0
0.653595 0.245453 0
0.738678 0.238342 0
0.806732 0.260406 0.008453
0.879791 0.287659 0.027008
0.948547 0.333252 0.061188
0.52594 0.397156 0.003784
0.545837 0.405792 0.006104
0.590149 0.415436 0.001801
0.642365 0.430908 0
0.728912 0.394287 0
0.808197 0.359741 0
0.875397 0.341583 0
0.940063 0.360016 0.032288
0.997437 0.40387 0.068909
0.644592 0.50238 0.055573
0.655273 0.506287 0.046204
0.686462 0.516113 0.032166
0.727814 0.528839 0.014191
0.786163 0.55304 0
0.867798 0.516785 0
0.933441 0.479889 0
0.99823 0.450409 0
0.999969 0.474792 0.047729
0.754333 0.614044 0.097321
0.759064 0.614777 0.08783
0.781342 0.623688 0.07782
0.822754 0.638733 0.051117
0.85849 0.651459 0.038513
0.912231 0.675262 0.013977
0.990082 0.632935 0
0.999939 0.591644 0
0.999969 0.57843 0
0.84024 0.753479 0.134918
0.841125 0.748627 0.124359
0.853943 0.751526 0.125732
0.883392 0.756256 0.120087
0.930054 0.766968 0.109802
0.97049 0.775146 0.090515
0.999969 0.793549 0.061371
0.999969 0.753571 0
0.999969 0.724701 0.047028
0.939178 0.881012 0.232666
0.939362 0.880341 0.223938
0.950958 0.880371 0.224854
0.976746 0.880615 0.221252
0.999786 0.881134 0.221741
0.999817 0.882751 0.227875
0.999847 0.89682 0.215942
0.999817 0.877014 0.156616
0.999878 0.848724 0.211212
0 0.016113 0.055054
0.041168 0.03595 0.07663
0.211487 0.045776 0.059937
0.338959 0.059174 0.025848
0.439606 0.06665 0.001038
0.542816 0.077606 0.020355
0.648682 0.091156 0.044342
0.744293 0.101135 0.057404
0.834625 0.12851 0.079498
0 0.117432 0.152832
0.02417 0.12851 0.156067
0.196625 0.128143 0.122375
0.330963 0.117798 0.072784
0.456543 0.105743 0.021027
0.564392 0.10553 0.025696
0.663422 0.114319 0.047821
0.759033 0.124969 0.068665
0.84845 0.160919 0.095459
0.157043 0.214294 0.068115
0.18454 0.222565 0.081757
0.316528 0.203644 0.022888
0.408905 0.180695 0.03418
0.507751 0.193939 0.027893
0.609955 0.206268 0.014404
0.703522 0.218536 0.038757
0.791351 0.229919 0.062714
0.873138 0.257202 0.098358
0.335938 0.29361 0.057922
0.356293 0.309082 0.064697
0.450256 0.315613 0
0.530579 0.293549 0
0.629517 0.260315 0.001953
0.711639 0.25943 0.020111
0.786255 0.283203 0.047272
0.861603 0.307678 0.07077
0.934784 0.35318 0.107025
0.513367 0.399414 0.031464
0.523834 0.410736 0.043854
0.576569 0.420685 0.033264
0.627319 0.431458 0.040802
0.710846 0.401947 0.040436
0.797028 0.369141 0.037354
0.865448 0.351562 0.053894
0.926178 0.375916 0.086243
0.990417 0.419403 0.12088
0.639282 0.501068 0.073944
0.643677 0.510498 0.089111
0.674377 0.519958 0.079376
0.723541 0.534149 0.060791
0.777344 0.555115 0.045868
0.861694 0.521515 0
0.925385 0.487183 0.021179
0.993835 0.457275 0.046509
0.999969 0.486328 0.099792
0.747681 0.607239 0.108246
0.748718 0.614868 0.120941
0.770966 0.624146 0.115265
0.813934 0.639648 0.094269
0.855499 0.654602 0.078583
0.905365 0.678955 0.064301
0.987823 0.63623 0
0.999939 0.59494 0
0.999969 0.583191 0.029114
0.83078 0.740509 0.140015
0.831085 0.749237 0.150879
0.847931 0.753387 0.153717
0.876831 0.758728 0.153107
0.922729 0.767914 0.142212
0.96875 0.777618 0.118347
0.999969 0.794769 0.095245
0.999969 0.758575 0
0.999969 0.72522 0.071838
0.932343 0.878448 0.228943
0.932526 0.881775 0.24704
0.943481 0.882111 0.250244
0.971222 0.882141 0.246155
0.997711 0.882935 0.246307
0.999817 0.88443 0.249542
0.999878 0.896973 0.239746
0.999786 0.876373 0.182343
0.999878 0.850067 0.231201
0 0.052582 0.105957
0 0.069794 0.136047
0.152863 0.08313 0.138733
0.349579 0.092255 0.099915
0.458496 0.097534 0.064667
0.567017 0.107788 0.072784
0.668793 0.124756 0.096436
0.752197 0.143494 0.118408
0.832489 0.167603 0.136993
0 0.118866 0.18222
0 0.135498 0.205963
0.105927 0.132568 0.198029
0.350403 0.13855 0.150513
0.480408 0.134949 0.103485
0.593597 0.133545 0.093018
0.686371 0.144012 0.110474
0.766083 0.160034 0.131714
0.840759 0.183167 0.149109
0 0.212646 0.262573
0 0.230469 0.280548
0.143158 0.230042 0.252686
0.30658 0.226074 0.221649
0.448547 0.224792 0.192566
0.587891 0.217346 0.134369
0.685669 0.221924 0.135101
0.774017 0.22998 0.153381
0.849182 0.25705 0.178497
0.194885 0.32132 0.153473
0.210999 0.333282 0.167114
0.329437 0.330811 0.179718
0.478394 0.325226 0.10318
0.572571 0.298828 0.129791
0.661804 0.315979 0.127747
0.745667 0.338196 0.127228
0.828888 0.358612 0.132324
0.903046 0.383484 0.162537
0.43457 0.401367 0.158966
0.44104 0.411102 0.172791
0.515869 0.428375 0.119843
0.608429 0.440552 0.083313
0.686493 0.417328 0.090668
0.762848 0.388031 0.101074
0.832458 0.384644 0.117157
0.898682 0.416534 0.148376
0.964569 0.458344 0.187073
0.596283 0.503662 0.16037
0.600922 0.511292 0.171814
0.638367 0.522736 0.150146
0.704071 0.540497 0.131195
0.752411 0.557007 0.137177
0.835449 0.535797 0.111176
0.904388 0.49826 0.132782
0.976624 0.477142 0.148621
0.999969 0.517548 0.203003
0.723389 0.608032 0.178741
0.720917 0.613892 0.192627
0.743286 0.622894 0.189789
0.788147 0.639557 0.177826
0.846741 0.659607 0.151245
0.891052 0.678162 0.144379
0.978302 0.644531 0.067627
0.999939 0.602936 0.100555
0.999969 0.591949 0.150024
0.815765 0.745117 0.199615
0.817261 0.75293 0.209503
0.830139 0.755981 0.210999
0.860687 0.761597 0.209442
0.905182 0.769989 0.209869
0.961304 0.782196 0.188354
0.999969 0.797028 0.164337
0.999969 0.758636 0
0.999969 0.732086 0.154175
0.915344 0.881165 0.283356
0.914368 0.884552 0.295471
0.928345 0.885193 0.298401
0.956177 0.885773 0.297882
0.991241 0.886719 0.295074
0.999817 0.888184 0.299622
0.999878 0.896027 0.29126
0.999817 0.883362 0.232056
0.999908 0.854095 0.282318
0 0.091675 0.152771
0 0.107147 0.174713
0 0.124847 0.225342
0.274078 0.14389 0.183441
0.523773 0.137115 0.110962
0.608459 0.135376 0.109344
0.693878 0.148682 0.129608
0.766907 0.170471 0.15448
0.835449 0.199615 0.18103
0 0.152252 0.23111
0 0.165161 0.249359
0 0.172974 0.28064
0.293671 0.178162 0.226776
0.547729 0.172394 0.150177
0.637909 0.164337 0.136505
0.717834 0.177307 0.155975
0.788696 0.196106 0.178497
0.852997 0.226074 0.206604
0 0.211151 0.295837
0 0.224121 0.314453
0 0.245239 0.355591
0.291565 0.237701 0.294556
0.502441 0.243225 0.248566
0.614197 0.243164 0.212708
0.707794 0.242371 0.197723
0.784332 0.24942 0.210754
0.856171 0.277832 0.239899
0 0.330719 0.391693
0 0.340881 0.411438
0.080536 0.356567 0.417786
0.317841 0.355377 0.362213
0.466858 0.353149 0.347992
0.582062 0.358765 0.331604
0.690125 0.365723 0.300293
0.792572 0.36322 0.263733
0.875549 0.392303 0.280243
0.25058 0.42688 0.274017
0.249634 0.435333 0.290009
0.364319 0.447357 0.294891
0.509247 0.454193 0.26767
0.63266 0.45047 0.212372
0.70282 0.431946 0.250763
0.767822 0.452454 0.265625
0.853241 0.477509 0.263214
0.927612 0.512482 0.284729
0.508759 0.504669 0.283783
0.514587 0.513031 0.294556
0.553253 0.519562 0.289642
0.649323 0.542877 0.221283
0.734192 0.564087 0.193085
0.804718 0.549377 0.191772
0.872498 0.522491 0.214264
0.939453 0.524872 0.235382
0.994293 0.564148 0.274261
0.670105 0.602417 0.279572
0.672424 0.609802 0.287964
0.695221 0.618866 0.287323
0.745056 0.638855 0.279297
0.818237 0.662415 0.24231
0.865448 0.680481 0.250519
0.951447 0.659668 0.19693
0.998566 0.621613 0.238678
0.999969 0.615753 0.255066
0.77951 0.747009 0.284576
0.778168 0.750854 0.290863
0.797333 0.757782 0.293549
0.832672 0.76535 0.2948
0.876892 0.773651 0.297424
0.943024 0.787231 0.284027
0.992737 0.799927 0.264343
0.999969 0.764984 0.142059
0.999969 0.738953 0.20575
0.894745 0.885437 0.34613
0.89502 0.892609 0.360107
0.907043 0.888672 0.364471
0.935791 0.889557 0.36438
0.971832 0.891144 0.366852
0.999817 0.89212 0.364441
0.999878 0.897369 0.364319
0.999878 0.894104 0.308685
0.999939 0.858978 0.340637
0 0.132965 0.206665
0 0.142975 0.220093
0 0.156464 0.248505
0.082153 0.15921 0.275269
0.384979 0.187653 0.217316
0.635498 0.166595 0.130188
0.723724 0.170959 0.147888
0.782196 0.187561 0.170319
0.847443 0.223175 0.206573
0 0.171234 0.257874
0 0.181671 0.271912
0 0.193817 0.298096
0.062195 0.190002 0.32132
0.405396 0.216614 0.252289
0.646698 0.196472 0.159332
0.744781 0.199615 0.171753
0.80014 0.212982 0.192444
0.860199 0.246368 0.232544
0 0.219116 0.315308
0 0.231293 0.331543
0 0.252014 0.373657
0.054321 0.253601 0.389557
0.410248 0.261993 0.310089
0.637512 0.255371 0.234344
0.720917 0.257538 0.223358
0.790985 0.272736 0.244324
0.853241 0.309143 0.290955
0 0.30603 0.415558
0 0.318878 0.432251
0 0.335938 0.468689
0.126343 0.350189 0.481079
0.437714 0.348846 0.397339
0.59436 0.36026 0.378906
0.681885 0.370911 0.370209
0.775024 0.376862 0.354645
0.856079 0.390808 0.353912
0 0.44104 0.528229
0 0.450806 0.54068
0.082092 0.464966 0.545868
0.258942 0.466553 0.531097
0.486633 0.471832 0.465698
0.582031 0.473602 0.465546
0.681305 0.480804 0.459198
0.786255 0.494385 0.437408
0.882782 0.515442 0.424072
0.307648 0.526215 0.42514
0.309296 0.536011 0.441559
0.368103 0.536438 0.4263
0.510742 0.545319 0.430481
0.654572 0.565399 0.364746
0.755707 0.572021 0.331116
0.817474 0.559174 0.371521
0.883911 0.584198 0.389313
0.957275 0.61499 0.400635
0.603058 0.606262 0.392242
0.60498 0.616089 0.400513
0.628632 0.622498 0.40741
0.682861 0.636383 0.398285
0.762573 0.660309 0.35672
0.851807 0.68512 0.308075
0.928009 0.676727 0.291931
0.98822 0.643707 0.314941
0.999969 0.655792 0.346405
0.742035 0.752472 0.362976
0.744995 0.763733 0.369446
0.75943 0.763885 0.376465
0.789825 0.766663 0.386627
0.837402 0.776245 0.393402
0.904144 0.787262 0.394806
0.970428 0.799805 0.356171
0.999969 0.775818 0.267639
0.999969 0.75177 0.319427
0.86557 0.897705 0.406738
0.864136 0.904144 0.422424
0.877991 0.901703 0.432373
0.902374 0.896179 0.440826
0.938995 0.894531 0.449341
0.989532 0.896729 0.450958
0.999908 0.898743 0.451172
0.999908 0.901886 0.404724
0.999969 0.868713 0.426727
0 0.162109 0.245697
0 0.170837 0.257111
0 0.177765 0.270142
0 0.189423 0.310516
0.288422 0.200653 0.28595
0.490234 0.221466 0.238373
0.715668 0.206696 0.164673
0.810211 0.219604 0.197144
0.853363 0.243134 0.236755
0 0.189087 0.280884
0 0.195984 0.28949
0 0.207214 0.311157
0 0.219757 0.354553
0.292816 0.223602 0.334747
0.51062 0.249207 0.275879
0.712402 0.238983 0.216278
0.817993 0.251801 0.247101
0.859039 0.275238 0.281647
0 0.229462 0.329285
0 0.236267 0.339661
0 0.254822 0.374969
0 0.273773 0.42926
0.232178 0.25766 0.407776
0.499939 0.288208 0.341125
0.693298 0.287476 0.307983
0.793396 0.296265 0.309631
0.843811 0.324982 0.343903
0 0.311188 0.432251
0 0.31842 0.444733
0 0.329254 0.471252
0 0.354523 0.538086
0.219086 0.340546 0.499603
0.523987 0.353638 0.438751
0.678802 0.369629 0.426239
0.76355 0.382202 0.414642
0.83371 0.409882 0.442169
0 0.411438 0.548981
0 0.417053 0.559601
0 0.432251 0.589233
0.103668 0.44278 0.603455
0.31311 0.461456 0.582489
0.555542 0.458435 0.527405
0.683441 0.480408 0.518738
0.762238 0.493805 0.521423
0.838562 0.511017 0.530487
0 0.549896 0.664368
0 0.554443 0.666168
0.118347 0.55722 0.664215
0.28476 0.565979 0.653717
0.458862 0.5784 0.614136
0.616455 0.587677 0.582672
0.708649 0.598175 0.584991
0.796265 0.601532 0.579041
0.885986 0.618378 0.570984
0.361633 0.644867 0.575562
0.36795 0.64624 0.572083
0.418121 0.649933 0.563934
0.522217 0.648743 0.530151
0.663635 0.658478 0.53894
0.773499 0.685089 0.487885
0.878967 0.692444 0.428192
0.938171 0.67807 0.473724
0.989929 0.704681 0.502716
0.664368 0.79007 0.465088
0.667694 0.784027 0.461945
0.693573 0.786865 0.472656
0.732819 0.785217 0.484283
0.78598 0.778351 0.506805
0.85965 0.790161 0.492676
0.958252 0.806549 0.417419
0.999969 0.790466 0.379028
0.999969 0.769714 0.407288
0.807037 0.922577 0.49765
0.809845 0.922699 0.494049
0.824432 0.920227 0.502502
0.856506 0.914062 0.522583
0.89679 0.903809 0.537445
0.948639 0.89917 0.549133
0.999908 0.902771 0.540833
0.999878 0.911285 0.531372
0.999939 0.885986 0.500854
0 0.192535 0.285004
0 0.204559 0.300598
0 0.205963 0.303497
0 0.216339 0.329376
0.006348 0.224731 0.376404
0.409302 0.254181 0.30484
0.591797 0.263367 0.285736
0.754913 0.267548 0.278107
0.849152 0.294281 0.340302
0 0.216461 0.316376
0 0.22464 0.32782
0 0.231323 0.338409
0 0.240967 0.367096
0 0.243927 0.415466
0.425323 0.26825 0.347351
0.587433 0.285828 0.343079
0.742065 0.290436 0.339111
0.8461 0.315369 0.392853
0 0.241821 0.347534
0 0.249908 0.358246
0 0.263519 0.38269
0 0.286072 0.434814
0 0.284698 0.482361
0.396881 0.28775 0.439514
0.589172 0.311615 0.407593
0.736908 0.323578 0.407166
0.842682 0.34906 0.4534
0 0.309845 0.436768
0 0.319275 0.449738
0 0.332397 0.476257
0 0.355957 0.530548
0 0.361511 0.593872
0.335571 0.348114 0.556793
0.604553 0.367218 0.512878
0.746826 0.382263 0.498383
0.844147 0.411591 0.532745
0 0.406403 0.561127
0 0.411957 0.56781
0 0.424072 0.593658
0 0.440796 0.639923
0.085938 0.463562 0.68811
0.369904 0.448242 0.638611
0.628235 0.458954 0.59964
0.770996 0.475006 0.584503
0.840973 0.502502 0.590485
0 0.507721 0.680298
0 0.512299 0.685211
0 0.522614 0.70752
0.111511 0.535797 0.724701
0.316864 0.55127 0.704468
0.513214 0.573181 0.66925
0.68338 0.578125 0.649506
0.787842 0.59436 0.642792
0.85379 0.610138 0.652252
0.129089 0.648865 0.771149
0.118225 0.654083 0.77887
0.203644 0.65741 0.774567
0.320709 0.665283 0.77005
0.464691 0.680786 0.750488
0.615662 0.696014 0.708252
0.748444 0.705231 0.69223
0.827057 0.712799 0.69342
0.901459 0.723663 0.695862
0.391266 0.787109 0.676758
0.363708 0.791382 0.697113
0.42749 0.798828 0.672638
0.523254 0.80603 0.640106
0.628723 0.805084 0.619415
0.776703 0.804077 0.641449
0.878906 0.809479 0.613739
0.992645 0.807129 0.527405
0.999969 0.799316 0.598053
0.664368 0.936859 0.537201
0.63916 0.939758 0.542908
0.684418 0.939087 0.556702
0.769409 0.934021 0.592163
0.836029 0.925415 0.613892
0.893188 0.915802 0.62915
0.958038 0.908936 0.632568
0.999969 0.913361 0.60437
0.999969 0.906769 0.587952
0 0.222351 0.32431
0 0.234497 0.340118
0 0.236359 0.340973
0 0.239441 0.352356
0 0.252045 0.393005
0.23822 0.257172 0.407959
0.509491 0.290619 0.38327
0.656616 0.306427 0.394104
0.779419 0.319397 0.418549
0 0.244232 0.354095
0 0.253601 0.366882
0 0.257904 0.371338
0 0.264893 0.388794
0 0.274109 0.430237
0.163239 0.269684 0.471466
0.511047 0.296387 0.443451
0.666809 0.317139 0.439545
0.784332 0.334412 0.47467
0 0.265228 0.381958
0 0.273804 0.393402
0 0.281982 0.405853
0 0.302063 0.445831
0 0.308136 0.487305
0.038574 0.296417 0.543488
0.474579 0.313599 0.524933
0.668762 0.334167 0.510315
0.792053 0.357239 0.53363
0 0.314758 0.443146
0 0.324463 0.455872
0 0.336548 0.478119
0 0.358154 0.522919
0 0.377045 0.585449
0 0.363831 0.64212
0.413055 0.366638 0.621185
0.665039 0.381989 0.610077
0.80423 0.407135 0.616028
0 0.405518 0.56076
0 0.411224 0.56778
0 0.417633 0.583649
0 0.433594 0.622192
0 0.459045 0.694244
0.069916 0.455414 0.736389
0.424561 0.448792 0.706268
0.676849 0.464752 0.689789
0.82489 0.482483 0.684998
0 0.496307 0.675446
0 0.499756 0.67749
0 0.50589 0.693024
0 0.521088 0.732727
0.022095 0.542236 0.785553
0.317413 0.567352 0.788361
0.540344 0.560944 0.746429
0.725891 0.568451 0.73172
0.861298 0.582184 0.730804
0 0.601929 0.795807
0 0.602173 0.794861
0 0.610229 0.811859
0.116669 0.623718 0.828796
0.302856 0.636932 0.824524
0.487488 0.659729 0.791901
0.664185 0.689331 0.759338
0.794434 0.692291 0.759125
0.885132 0.702972 0.7659
0.171082 0.745514 0.876923
0.160004 0.749786 0.883026
0.224731 0.750824 0.879211
0.340363 0.759827 0.871246
0.488434 0.772766 0.858215
0.616821 0.791138 0.835876
0.748444 0.810516 0.796753
0.865234 0.819244 0.788361
0.929504 0.8302 0.797363
0.459869 0.89917 0.837494
0.467377 0.89502 0.861633
0.478729 0.905121 0.834686
0.54715 0.914734 0.820068
0.635773 0.926788 0.787445
0.747437 0.931854 0.749786
0.878998 0.926575 0.757568
0.962219 0.915833 0.742493
0.999756 0.918945 0.723206
0 0.243805 0.352173
0 0.265411 0.381042
0 0.267883 0.382294
0 0.269226 0.385406
0 0.281464 0.416138
0 0.288666 0.476013
0.337158 0.293976 0.501892
0.595551 0.318817 0.509766
0.73111 0.338989 0.541351
0 0.276489 0.39743
0 0.289673 0.414795
0 0.29364 0.41861
0 0.295471 0.424286
0 0.303436 0.454254
0 0.30191 0.513306
0.265594 0.30603 0.573364
0.58551 0.329681 0.574371
0.733398 0.347107 0.594543
0 0.2995 0.429382
0 0.310211 0.443878
0 0.316681 0.452545
0 0.329407 0.475677
0 0.333832 0.502991
0 0.331024 0.55481
0.155212 0.323578 0.641388
0.532288 0.345886 0.628021
0.710541 0.368225 0.655731
0 0.337158 0.472778
0 0.345886 0.483856
0 0.354584 0.498871
0 0.373077 0.534668
0 0.394226 0.588867
0 0.391052 0.638916
0.04422 0.371918 0.711731
0.487 0.39212 0.694366
0.694092 0.417114 0.729858
0 0.407837 0.562927
0 0.413757 0.569733
0 0.42041 0.584259
0 0.435028 0.615234
0 0.460815 0.674896
0 0.469604 0.752319
0.13269 0.4552 0.7836
0.499146 0.463043 0.764435
0.717438 0.485657 0.775116
0 0.491486 0.664825
0 0.493835 0.666992
0 0.498047 0.680023
0 0.508789 0.709747
0 0.530151 0.764343
0.048279 0.563873 0.856689
0.341705 0.557587 0.831848
0.598755 0.559845 0.800049
0.781403 0.575378 0.805206
0 0.579681 0.773468
0 0.580627 0.773163
0 0.586945 0.78894
0 0.602722 0.825531
0.023865 0.622955 0.871796
0.30249 0.642761 0.873596
0.548065 0.677246 0.851776
0.705109 0.674713 0.824341
0.84021 0.681274 0.83139
0 0.694763 0.90097
0 0.691956 0.896118
0 0.702881 0.911224
0.169434 0.711639 0.917542
0.353455 0.724487 0.91507
0.51712 0.747223 0.894836
0.679626 0.774902 0.848633
0.823029 0.811005 0.840454
0.88681 0.810303 0.84726
0.389587 0.839447 0.951904
0.370911 0.834961 0.953918
0.415741 0.838776 0.950256
0.496643 0.844116 0.945557
0.583923 0.85672 0.932068
0.687592 0.872955 0.914459
0.789429 0.893005 0.879333
0.873444 0.915161 0.868439
0.946686 0.921143 0.868622
